/* XPM */
static char *_ec5611eb8f54c688b14149ce8b6df50BQ9DUt1oFiffjaBN[] = {
/* columns rows colors chars-per-pixel */
"48 48 241 2 ",
"   c #0E150B",
".  c #1E1B02",
"X  c #171D0C",
"o  c #191702",
"O  c #1F1810",
"+  c #251C01",
"@  c #291E14",
"#  c #1C230F",
"$  c #1C2100",
"%  c #242302",
"&  c #292300",
"*  c #2B2B01",
"=  c #242B0D",
"-  c #282907",
";  c #362908",
":  c #2B330F",
">  c #2B3202",
",  c #343204",
"<  c #353C04",
"1  c #33340D",
"2  c #32380E",
"3  c #3B3C0D",
"4  c #3C3504",
"5  c #232811",
"6  c #2B2E13",
"7  c #2D2A19",
"8  c #342E13",
"9  c #36241B",
"0  c #3E2A1E",
"q  c #352D18",
"w  c #2F3113",
"e  c #313615",
"r  c #363B13",
"t  c #3B3D14",
"y  c #363019",
"u  c #3B361B",
"i  c #3B3C1C",
"p  c #393716",
"a  c #3B3823",
"s  c #453905",
"d  c #44391F",
"f  c #443914",
"g  c #513D02",
"h  c #463022",
"j  c #4F3426",
"k  c #453C23",
"l  c #583D2B",
"z  c #4B3D30",
"x  c #3B430A",
"c  c #3D4313",
"v  c #3B4218",
"b  c #3D4A15",
"n  c #3F4320",
"m  c #474408",
"M  c #574904",
"N  c #434612",
"B  c #454916",
"V  c #4C4D14",
"C  c #414419",
"Z  c #46491B",
"A  c #4B4E1B",
"S  c #4A441A",
"D  c #514C1E",
"F  c #4D5115",
"G  c #4B521C",
"H  c #515314",
"J  c #555815",
"K  c #5A5B15",
"L  c #53541B",
"P  c #595B1C",
"I  c #5B5515",
"U  c #66591F",
"Y  c #665E13",
"T  c #655309",
"R  c #5F601A",
"E  c #65651B",
"W  c #6E6A1D",
"Q  c #79741F",
"!  c #6D6006",
"~  c #454323",
"^  c #4D4321",
"/  c #454A22",
"(  c #4C4B2B",
")  c #494729",
"_  c #4C5225",
"`  c #445020",
"'  c #585727",
"]  c #4A4A37",
"[  c #524B35",
"{  c #575737",
"}  c #564429",
"|  c #684031",
" . c #6A4B34",
".. c #655733",
"X. c #5C6330",
"o. c #69672D",
"O. c #656533",
"+. c #75723A",
"@. c #707046",
"#. c #5C5042",
"$. c #B18D1D",
"%. c #9D983D",
"&. c #B8A733",
"*. c #DDBA29",
"=. c #DCBC35",
"-. c #DDBB3B",
";. c #D7B536",
":. c #CDB333",
">. c #E3BD26",
",. c #E2BD34",
"<. c #E4BC3B",
"1. c #EABB3C",
"2. c #DFE31D",
"3. c #DCC428",
"4. c #DDC43A",
"5. c #DCD738",
"6. c #CBD22D",
"7. c #E7C42C",
"8. c #E4C23A",
"9. c #EBCC3D",
"0. c #E5C838",
"q. c #E7D83C",
"w. c #F1CA3F",
"e. c #E5E826",
"r. c #F1EC32",
"t. c #CCC119",
"y. c #8C9C54",
"u. c #979754",
"i. c #8B8448",
"p. c #9AA754",
"a. c #9E9974",
"s. c #B7B26A",
"d. c #ABBE76",
"f. c #ADAC6F",
"g. c #A89843",
"h. c #C8B94B",
"j. c #DDBB42",
"k. c #D0B65A",
"l. c #E4BC44",
"z. c #E6B844",
"x. c #E5BC57",
"c. c #C4BD6D",
"v. c #B9C75B",
"b. c #B3C951",
"n. c #AAC667",
"m. c #BBD269",
"M. c #ABCA75",
"N. c #B4C677",
"B. c #B6CF6E",
"V. c #DECD43",
"C. c #DCC947",
"Z. c #D9D946",
"A. c #C6CD58",
"S. c #D9C758",
"D. c #C9D55A",
"F. c #D8D759",
"G. c #CCD045",
"H. c #E3C344",
"J. c #E4CB43",
"K. c #E4C44A",
"L. c #EAC54B",
"P. c #E3CB4C",
"I. c #EBCC4C",
"U. c #EAC744",
"Y. c #F1CC4A",
"T. c #EBDA43",
"R. c #E4DC4D",
"E. c #E8D648",
"W. c #F3D84A",
"Q. c #E3CB52",
"!. c #ECCC51",
"~. c #E9C956",
"^. c #F1CD52",
"/. c #E3D454",
"(. c #E4DC53",
"). c #EBDC5B",
"_. c #E9D758",
"`. c #F3DA58",
"'. c #E5E34C",
"]. c #EBE346",
"[. c #EDE35B",
"{. c #E8E356",
"}. c #F4E659",
"|. c #F2ED46",
" X c #D8CC65",
".X c #C8D667",
"XX c #D7D768",
"oX c #C7D677",
"OX c #D8D973",
"+X c #CDC66E",
"@X c #E8DA67",
"#X c #F2DE6B",
"$X c #F0DE62",
"%X c #EBD874",
"&X c #F2DC75",
"*X c #D7E678",
"=X c #DBE165",
"-X c #ECE465",
";X c #E4E36A",
":X c #EAE667",
">X c #F5E568",
",X c #E9E476",
"<X c #FBEB74",
"1X c #F4E775",
"2X c #9E9485",
"3X c #B6AB95",
"4X c #B6AC8E",
"5X c #A69A82",
"6X c #C9BA89",
"7X c #C2BEA3",
"8X c #B5CB86",
"9X c #B9D78C",
"0X c #BBDA97",
"qX c #AECF94",
"wX c #BFE195",
"eX c #BAD9A8",
"rX c #BCE3B1",
"tX c #BDE4AE",
"yX c #C6D987",
"uX c #D5DD83",
"iX c #CADB91",
"pX c #DADA94",
"aX c #D8C589",
"sX c #F2DF85",
"dX c #E3D889",
"fX c #D7E78B",
"gX c #CCE598",
"hX c #D5E799",
"jX c #CCE280",
"kX c #E7E984",
"lX c #F8E886",
"zX c #E7E898",
"xX c #EFF292",
"cX c #C4DBAA",
"vX c #C6E6A7",
"bX c #DDE7A0",
"nX c #EBF1A7",
"mX c #BFDBC5",
"MX c #C0DCC5",
"NX c #FAEFC2",
"BX c #C4E6C5",
/* pixels */
"e 6 = # X r l j l  . .l = 0 l 9 9 9 9 l j 0 h l d y A : B H B c : C 2 r B A # = t N Z C V V r A ",
"t : : 2 = c N V V l  .B : h 9 9 d ^ d y y 0 h t v 6 = Z = H P w = = e V B V t : w r t r r B B v ",
"B w Z B c : B B Z h d = A y d d 2 e : B t y 2 J P #     X = = # B F C B F = 2 c O O @ X X 2 v 6 ",
"t 6 5   # N N e y w 7 O r F L J : X c L v e B B w     2 V V t V V W K K v : v w @ h 9 : = # e U ",
"^ d t t 6 c t v r t r v 5 Z 6 A C t B K H v A E r t : 2 K R W C 7 t L J A L r 9 l  .0 r F Z L A ",
"^ U U L v 2 t C 6 = e # A A 9 h t K F K R e e J L W Q P P v H 5 r F V = = 6 O j h l d c 2 e Z Z ",
"t r w C V v e V B : C r v 1 0  .A K K t t X 6 w e Z t H C 5 e 5 r R Q K r : 7 j h j j X 5 F B Z ",
"t A Z L L v L a % . . [ 8 ) @.S 7X4X5X& 8 a q ( p r i t / c < x < x * % u ) ~ _ x b h 5 = v A C ",
"t V L 5 t H w Z C ~ e ~ ~ * p 1 4X3X#.z 6 ~ 8 p { % . % % * / r v i u ) % o o r r * c e A t = C ",
"F t y B H K # 3 % % - ( p p i + [ [ 2Xa.2X~ 8 ) i o a ( ) B _ { { { 8 y q 8 u o c ' L B L A = Z ",
"H C 5 t E Z R B C 1 - C c c y 8 ) u 4X7X3X_ : _ * 3 C G ' m : ] ~ ] a 7 ) 6 k ) { ( V F Z C = C ",
"V t 7 t V 2 A 2 2 Z G 3 _ e i p B s.p.p.y.iXN.8XoXoXfXkXkX,Xx +.L , 6 d a i % ( ( r F P r e C H ",
"F B e w 6 = 6 c Z Z G Z A / { i . f.u.f.N.N.8Xy.p.p.oX*XkX,XpXf.+.S k p y i % n ~ ) V A : t v # ",
"r A W E Z 6 Z / 3 , G * * / o.y.uXv.v.b.n.M.M.N.B.n.b.G.{.{.:X;XXXkXpXi.' _ / Z 2 v A E P e 6 w ",
"V Q Q U 6 H U A * N O.' O.s.kXkXD..Xm.n.M.8X8XeXeX0Xd.v.OX:X:X{.[.[.,X@Xm G F 2 > b 2 F A v C C ",
"R W Q 6 : W E A $ < D D f.zX,X*Xv.v.v.M.M.9X0XeXcXeXN.v.XX1X:X}.[.(.,X@XW G B 2 v G A w = B v v ",
"l 6 t c W A c 4 O.' m zXzX,X=XA..X*Xm.d.8XqXeXBXmXmXcXiXpXnXxX<X>XT.E.R.%Xu.P 2 - : A V c e e A ",
"0 7 c N Z = N V @.' g ,X1X;XD.A.oXyXB.v.B.9X0XrXtXtXwXyXgXnXNXlXsX}.T.T.XXpXK t u ) Z E B F L ^ ",
"0 j t 5 6 2 J ' +.4 M ,XlXF.A.A.oXM.n..XB.gXwXqXtXtX9XyXgXnXNXlXsXW.q.q.@XpXm C ~ p r r B C L L ",
"l l h 0 9 U J z g nX<X>X-XD.m.*X8X9XvX8XqXeXeXrXvXtXiX,XkXlXlX1X&X(.'.'.Q.Q.Q.M B b : t E E L L ",
"| l h l h e t 8 g.lX$X<X<XF..X*X9XhXhXyX0XvXcX0XgXgXoX,X,X1X1X#X#X(.'.'.Q.J.I.M ' _ J H R P Q  .",
"| j 0 h 7 w C ..1X1X`.<X>XF.A..XfXhXiXgXiXhXbXzXOXXX,X:X:X[.).$X_.(.R.Z.H.Y.Y.! O.O.P 2 w 6 d | ",
"9 j j y c V P } lX&X`.#X>X=X.X.XfXiXhXhXiXhXbXzX.X.X,X-X-X[.)._._./.R.R.K.U.8.s N A P H V t V h ",
"h h 0 t t C t ; >X).`.>X<X;XXX.XOXuXzXhXuXdXdX%XQ./.(.R.R.R.W._././.R.R.H.9.9.! N f c F V V P d ",
"h 9 d L w 5   s >X(.W.>X>X:X;X;XXX XkXuX,XS.h.K.I.W.9.J.T.R.q.^.^./.E.E.L.0.0.T 3 % N B 2 r r # ",
"h h 2 = r 6 X s }.}.T.>X<X1X;X;XF.XXOXkXOXh.h.K.U.Y.E.T.T.'.q.!.!.P.V.V.H.0.9.M , , B L t w 5 r ",
"j d t 5 L Z t ' R.(.T.>X<X-X[.-X_.F.h.h.&.K._.Y.Y.Y.Y.W.W.V.7.H.H.C.J.J.<.W.9.4 % 2 X X X   6 l ",
" .A X = = O 5 ' :X_.|.$X>X-X[.{._.E.`.:.:.I.I.K.L.Y.L.U.I.J.,.1.1.4.0.8.l.^.;.M i ( V t : = # l ",
"C R B 7 w w 5 f :X(.q.).>X-X[.{./.E.`.V.J.K.H.I.^.!.H.J.J.4.*.1.1.-.4.8.l.^.-.s w i H v V F t ^ ",
"A c J Q U L r S A.1Xq./.).>X}.}.).W.E.W.Y.U.U.j.$.$.:.H.j.;.,.1.z.8.0.T.`.^.K.& i ) v B R V 6 v ",
"r B 2 5 O w 1 j f 4X@XT.R.}.>X`.@XZ.'.J.8.K.K.l.;.j.-.H.L.:.t.H.H.z.7.7.q.OX%.+ w : t C 5 X : r ",
"Z e @ 9 @ V J ; } k s 5.q.r.&X&X_./.(.P.Q.!.!.!.L.H.-.-.=.8.4.l.H.U.7.9.Q.c.Y t / / A 5     v A ",
"v 0 j l h 9 w } f ; s ].5.r.&X&X).).(.P.P.L.P.L.l.l.-.=.=.-.=.-.l.8.7.9.Q.+XM Z r 1 r : X = : # ",
"y h j l l h y , d ; ; -XF.e.].].&X&X&X/.J.=.3.0.7.7.>.7.7.3.z.<.1.7.J.E.k.L N C 1 1 Z L t Z L r ",
"0 j l j j l ^ > 1 _ O.D a.Z.e.r.[.&X%XC.Q.K.K.U.8.8.*.,.<.=.z.>.7.0. X Xo.' A X.C > A V N B v 2 ",
"r L r 9 0 l ^ < { @.o.3 a.Z.2.e.{.&X%X/._.C.-.8.,.,.=.<.8.1.z.>.7.7.S.S.I 3 , A / p 5 V F B r C ",
"t c N 7 7 d t < x > t ' ' u.6.5.|.@X#X%X@X~.~.L.l.~.x.x.x.x.w.*.3.E.c.s._ G _ < 1 t c B B A X t ",
"# # A t 2 = # c C c 3 S . S s i.{.(.R.T.T.T.T.0.9.0.0.I.J.P.J.C.C. XV * t > N B i C E R v r e t ",
"5 : r L W E Z X.C _ , * , ..4 i.G.(.>X{.'.5.3.3.9.4.4.H.4.I.4.P.C. X* 4 _ < x B C C J C R E C 5 ",
"t r K Q W A 5 / 1 i u + D 1 . - S ;XF.F.F.(.(.E.5.5.V.V.J.C.+Xs.I ' Z > Z A ' O.@.@.A = A Z v C ",
"e B E E W # = { 7 5 + 8 d i q u ) 4 , 1 f i.f.6XaXaXaX6XaXpXa.7 [ ] - % Z B ' C : r J F e # e C ",
"e C w 6 t t W e . . + { ^ ^ [ ] u s N p S s 4 + g M T g M ; & . 7 ] e $ B 3 O.Z - r L P C c e 6 ",
"v r B t N N A X r N N B t = 5 = A F 2 t 6 6 6 = t # 2 A L P c t 2 6 F 2 L # # 6 L B e r R C c B ",
"E V V J t 5 6 # N B r V J C v F Z L t t C A t 5 v = : 5 B ^ C 6 @ @ w t A # = : L P e r v t B v ",
"A Z = c X X X Q F B 5 w E r C E B A Z : A L t C V C A e 0 h 9 0 h h @ t C K E c t e = r 5 B P A ",
"L A N 2 t w O ^ t r @ # A t 5 = r # 6 = r L Z A V 7 q q j d ^ ^ l  .R J H R B e = B L F Z Q E Q ",
"Z Z 6 = # y 0 j l y 9 d C V t : v 2 : = t t r t L w r A d J v C #   w C P 7 # # 6 L v P B e e C ",
"e w     X d | | | l  .^ r y d ^ Z r C y y y @ 0 ^ t H J v B e 6 X = # w C 5 = = r B Z P B B : e "
};
