/* XPM */
static char *ae671e381b2740aad14f21727e3971aagWH1KlKtWbIPdbBB[] = {
/* columns rows colors chars-per-pixel */
"48 48 251 2 ",
"   c #793E29",
".  c #75472D",
"X  c #BD7C3A",
"o  c #A85B31",
"O  c #88624B",
"+  c #7FB25D",
"@  c #78AF6C",
"#  c #C59E33",
"$  c #D39E34",
"%  c #D6A82B",
"&  c #D4AA37",
"*  c #DEBB34",
"=  c #DDBB3B",
"-  c #DAB53B",
";  c #CAB139",
":  c #E6BB2C",
">  c #E1BD34",
",  c #E2BE3B",
"<  c #E0B437",
"1  c #ADC73F",
"2  c #DFC43B",
"3  c #DDC93C",
"4  c #DBC637",
"5  c #DAD439",
"6  c #D2C62E",
"7  c #E7C72B",
"8  c #E4C435",
"9  c #E3C33C",
"0  c #E3CB3D",
"q  c #EACA3B",
"w  c #EAC838",
"e  c #E4D33D",
"r  c #EAD13D",
"t  c #E7DC3C",
"y  c #EBDD3B",
"u  c #E9DA35",
"i  c #F1D636",
"p  c #EDD133",
"a  c #ECE134",
"s  c #F1E439",
"d  c #8EB25B",
"f  c #A6BA59",
"g  c #8CB36D",
"h  c #ACBD70",
"j  c #A49059",
"k  c #CA9051",
"l  c #D3A944",
"z  c #DEBD44",
"x  c #D9B748",
"c  c #D1B751",
"v  c #E3BE43",
"b  c #E4BD4B",
"n  c #E3B852",
"m  c #D0BF65",
"M  c #C49579",
"N  c #ABC74C",
"B  c #ABCA54",
"V  c #ABC859",
"C  c #B8D658",
"Z  c #B0D04B",
"A  c #ABC663",
"S  c #AECC64",
"D  c #A7C76B",
"F  c #B2CC69",
"G  c #B3CD67",
"H  c #BAD566",
"J  c #B6CD76",
"K  c #BBD575",
"L  c #ACCF71",
"P  c #90C166",
"I  c #DCC344",
"U  c #DDC44C",
"Y  c #DDCB46",
"T  c #DCD546",
"R  c #C1CA56",
"E  c #DDC357",
"W  c #C4D958",
"Q  c #D4DC55",
"!  c #DBD858",
"~  c #C9D44B",
"^  c #E5C442",
"/  c #EAC544",
"(  c #E5CB43",
")  c #EACD44",
"_  c #E3C34C",
"`  c #E5CC4A",
"'  c #EBCC4A",
"]  c #EBC64A",
"[  c #F2CA48",
"{  c #E4D344",
"}  c #E9D344",
"|  c #E6DA45",
" . c #EBDC43",
".. c #E5D44A",
"X. c #EBD44A",
"o. c #E6DB4B",
"O. c #EBDB4C",
"+. c #F2D849",
"@. c #E4CB52",
"#. c #E7C653",
"$. c #E6D552",
"%. c #EBD353",
"&. c #EBDB53",
"*. c #E5DC5B",
"=. c #EBDC5C",
"-. c #E8D659",
";. c #F2DC57",
":. c #D7E358",
">. c #CCE05B",
",. c #ECE145",
"<. c #EEE14D",
"1. c #EDE84C",
"2. c #F2E44C",
"3. c #F5E648",
"4. c #ECE355",
"5. c #E3E35C",
"6. c #EBE35C",
"7. c #E8E856",
"8. c #F2E45A",
"9. c #F4E658",
"0. c #C4D466",
"q. c #D2DB64",
"w. c #C7DB78",
"e. c #D3D273",
"r. c #E5CA65",
"t. c #EBDD64",
"y. c #ECDC6A",
"u. c #E6D968",
"i. c #F2DB68",
"p. c #E5CA75",
"a. c #E9D874",
"s. c #F5DD76",
"d. c #CFE46F",
"f. c #E5E363",
"g. c #ECE364",
"h. c #EDE46B",
"j. c #EBEA68",
"k. c #F3E463",
"l. c #F3E46C",
"z. c #FAE66B",
"x. c #F4EA6C",
"c. c #F6EA67",
"v. c #EDE472",
"b. c #E9E87A",
"n. c #F3E673",
"m. c #F4EA73",
"M. c #F3E47A",
"N. c #F4EA7A",
"B. c #FCEA7A",
"V. c #FAE776",
"C. c #E2F065",
"Z. c #A88E81",
"A. c #CEA39D",
"S. c #D3B1AF",
"D. c #B7CD8A",
"F. c #BAD787",
"G. c #AED499",
"H. c #B9D995",
"J. c #ACCC91",
"K. c #BBE492",
"L. c #ABCDAA",
"P. c #B6D7A7",
"I. c #BADEB4",
"U. c #B2D5A6",
"Y. c #B9E2A9",
"T. c #B1E0B2",
"R. c #99D190",
"E. c #C7DB89",
"W. c #D6D989",
"Q. c #C5DE9C",
"!. c #C8DC98",
"~. c #D1DE98",
"^. c #E9D687",
"/. c #EDDA9B",
"(. c #EBD697",
"). c #CBE38A",
"_. c #D6E38A",
"`. c #CAE196",
"'. c #D7E694",
"]. c #DDE89B",
"[. c #F4EA85",
"{. c #F5EC8B",
"}. c #F7E78A",
"|. c #E6E89C",
" X c #FCEE93",
".X c #F4EC9C",
"XX c #F9EB99",
"oX c #F5EE8E",
"OX c #C9DDAA",
"+X c #C3DAB9",
"@X c #D8CAB0",
"#X c #ECDEAE",
"$X c #E7D6A5",
"%X c #F0DEA7",
"&X c #E8DDB5",
"*X c #C8E2A8",
"=X c #DAE3AA",
"-X c #C6E3B9",
";X c #D7E7B9",
":X c #E8E9A8",
">X c #F6EBA3",
",X c #F6EAAA",
"<X c #F9F1AA",
"1X c #E9E3BC",
"2X c #E9E6B6",
"3X c #F6EAB8",
"4X c #F9F2B5",
"5X c #EBF3AD",
"6X c #BBD9CF",
"7X c #BEE1C2",
"8X c #D0D3CE",
"9X c #E0C3C7",
"0X c #CAE2C4",
"qX c #D3E3C5",
"wX c #F4E5CC",
"eX c #F9EAC5",
"rX c #FAF3C5",
"tX c #EAE8DA",
"yX c #F8E7D9",
"uX c #EAF1DC",
"iX c #FAF2D6",
"pX c #EDE3C0",
"aX c #DCEBE4",
"sX c #ECEDE5",
"dX c #E6ECEC",
"fX c #EEEEED",
"gX c #E8E8E7",
"hX c #F2EDE5",
"jX c #F1E6EF",
"kX c #F2EDEC",
"lX c #F4E4E0",
"zX c #ECF1E3",
"xX c #E7F1EB",
"cX c #ECF2EC",
"vX c #E5F6E4",
"bX c #F2F3E3",
"nX c #F2F2EB",
"mX c #F6F8EA",
"MX c #EDEDF3",
"NX c #EDEDFC",
"BX c #E6ECF3",
"VX c #F2EDF3",
"CX c #F3EDFC",
"ZX c #FAEDF5",
"AX c #ECF2F3",
"SX c #EDF2FC",
"DX c #E8F4F6",
"FX c #F1F1F2",
"GX c #F2F2FB",
"HX c #F7F7FA",
"JX c #F7DBE9",
/* pixels */
"fXfXfXfXfXfXfXfXdXAXsXsXzXFX9Xk M gXZXZXdXVXzXDXMXMXVXkXzXsXfXMXxXfXMXkXkXkXkXfXfXfXfXFXfXFXfXfX",
"fXfXfXfXfXfXfXfXVXnXFXVXNXkXj o . 9XmXBXnXhXMXjXFXcXsXsXMXMXMXgXnXkXkXfXMXMXBXdXfXfXFXfXFXgXFXfX",
"fXfXfXfXfXfXfXfXVXVXgXAXSXuX@XA.. O kXNXxXNXkXmXdXxXcXFXGXVXnXbXBXMXcXMXAXcXcXMXfXFXsXFXgXFXfXfX",
"fXfXfXfXfXfXfXfXAXsXbXkXfXAXGXHXZ.  M $X2XFXnXdXnXMXMXMXfXfXMXMXuXcXAXzXuXsXkXhXfXfXFXfXFXfXfXfX",
"fXfXfXfXfXfXfXfXxXcXFXhXlXZXtXHX8X  S.4Xp.JXCXVXMXMXfXbXbXbXsXsXjXkXkXMXNXMXfXgXfXfXFXfXFXfXfXfX",
"fXfXfXfXfXfXfXfXMXFXgXAXcXCXHXtXD j g aX$X&XGXuXwX3X>X}.M.n.l.z.}.[..XwXVXVXAXAXfXFXgXFXgXFXfXfX",
"fXfXfXfXfXfXfXfXZXsXzXDXAXMXnXJ + g + @ h K B S V C >.d.b.[.{.[.B.}.N.x.[.2XsXFXfXfXFXgXFXgXFXfX",
"fXfXfXfXfXfXfXfXgXHXjXyX2X Xm.h @ g f D V J.R.f P d d f 0.f.g.g.f.v.[.{.B.n..XwXfXfXfXFXfXFXfXfX",
"NXhXsXSXsXnXCXdXhX1XrXXXk.c.z.A A S S V Z G.L.D V N N d h W 7.i.5.g.6.g.a.M.N.N.3XGXMXhXcXxXuXMX",
"kXcXBXVXsXMXsXrX4XrXyX<Xl.l.Q 0.G A A B S L.G.H.U.J.B Z N Z j.l.g.h.6.g.a.h.v.x.b.:XCXMXgXAXcXMX",
"sXAXNXkXkXsX3XrXrXrXXXx.B.u.C J G S D F J L.G.H.U.6XG.V Z 1 q.m.x.M.k.g.t.g.g.g.7.=.yXSXgXVXNXsX",
"BXMXVXcXtX4X4XiX,Xn.c.z.h.H H C H J S V F U.P.P.K.P.6XL.L S Q B.[.}.m.x.5.6.g.=.*...N.sXMXkXMXsX",
"SXfXnXfX5X<XiX<Xh.h.n.B.Q H K H F.G B V Z H.I.-X0XOXH.7X6XJ.Q [..X,X{.N.g.g.y.=.-.-.y ,XGXkXkXxX",
"VXdXMXeX>XwXeXB.z.{.n.*.W C K !.K V V G K G.K.0X-X0XOXP.8XH.>.>X<X4X.X[.g.g.a.%.y &.e h.nXMXjXAX",
"hXMXsX.X4XwX[.l.s.m.c.0.H H E.`.G B L D.F.U.H.H.-X+XqXF.U.+XC.XX4X4X<X{.g.g.a.&.t O...O.3XMXcXMX",
"dXCX3X:XiX Xc.n.x.V.:.C H w.E.A A J H.D.H I.7XF.H.-X+XY.K.J b.,X<X4X<X{.g.g.a.o.o.O. .{ }.nXvXVX",
"dXVX,XrX4Xc.s.m.c.x.d.C K `.F V E.*XF.D.F.T.T.P.Y.F.OX0XH.>.x. XXX X X}.h.g.t.=. .@.X.} X.yXxXMX",
"AXhX.XiX.Xk.M.x.V.g.~ W ).E.G E.;XOXD.K K P.I.7X-X0XH.-XQ.j.n.M.}.N.N.M.g.t.=.$.O.{ ) U p /.BXzX",
"AXyX.XiXv.8.B.x.z.x.~ w.*XK w.;X0XOXw.E.).).H.P.-X0X*XF.w.h.u.a.N.x.c.h.t.t.=.o.&.{ ) E p r.MXbX",
"MX3X,XeX6.8.B.x.l.x.Q K Q.K `.qX*X_.W.E.'.:X_.`.-X*XQ.0.5.6.l.g.x.g.g.t.=.=.&.| o.o.) @.X.0 tXFX",
"MX,XeXXX1.z.s.x.x.f.Q 0.w.`.;X=X).=X|.w._.:X2X'.-XOXR 5.y.6.k.o.=.t.y.y.=.O.o...|  .^ ` %.8 2XNX",
"NX,X4Xn.2.k.t.x.N.f.5.W H *XqXw.=X:X|.q._.=X2X2X`.0.! k.i.g.h.y.=.y.y.=.$.o. .&.O. ./ ( ` 8 (.SX",
"NX,X[.n.<.8.8.n.n.g.g.Q W E.!.w.1X:X_.w.].].:X:XY 6 6.%.&.*.u.s.&.=.$...` { | O.&.../ ( ..w ^.SX",
"NX3X4.m.&.2.3.M.m.k.l.j.:.0.w.'.:X|.~.W.:X'.w.c w =.| O.O.t ;.r O.&. .y ....| | Y E ) Y $.w p.SX",
"xXeXk.l.*.4.O.c.V.M.5.6.l.*.Q w.;X:XW.'.|.e.; 4 ^ X.O.{ ) +.}  .o.o.o...O.{ X.X.( ` / ( 3 ' p.HX",
"SXyXl.c.9.4.X.M.c.n.f.=.y.=.T R W.5X)._.m # z X.E @.......=.o.| { ..X.X.X.( ( ( ( I b ( ..8 ^.GX",
"cXlX}.l...;.2.c.c.n.k.g.y.;. .4 ; R _.c # < 9 ' ) X.( e e | | T X.( ) ( ) ^ 0 0 0 Y v ` #.% ^.SX",
"gXZX>X=.| 2.,.g.m.v.g.6.=.O.+.X.0 ; c # & 4 ( ` x ' ) X.' ' %.X.' ( 9 2 / ^ ^ ^ ^ ` 0 X.n $ %XSX",
"FXjX3Xc. .y 2.k.m.n.*.5.g.-.X.O.<.' % - = 0 ) ( _ %.` ) ) ) ) q 9 , = = ^ 9 ^ / ^ ` 2 } n & pXAX",
"VXFXtXM.+.y  .k.8.c.h.g.h.u.$. .T X.9 ( ( [ / ( e ( I z ( { ' _ > > , > 9 = , _ 0 3 x } x - tXAX",
"VXAXnX,X,.y t U o.8.k.g.t.u.-.| O...{ { X., / ( q q / ^ ` ` 2 4 > > 9 , 9 = v ^ 0 ^ z .., r.MXfX",
"bXxXBXyX8.&.a | 4.4.4.9.4.y.i.%.X...( ) 0 3 { ^ k X X X l _ 9 > > * * * ^ ^ _ _ ( ` r -.7 ^.GXsX",
"CXuXAXNX}. .y y ,.8.<.9.4.g.a.O.o.O.r ( ( 0 ^ 9 & - z = , ^ ^ 9 l * > > 9 _ z q 0 ` [ ..* wXxXsX",
"kXxXxXMXyX8.u  .u 9.9.4.4.6.r.r.| X.} ( ( 0 ^ ) ] ] ] ^ , 9 9 * > > > > 9 ^ 9 0 ( ' } ^ @.kXxXkX",
"hXxXfXkXCX,Xs | u 2.9.g.g.k.! a.O.| ` ( ( ( ( _ 9 ^ 9 * > > > > , z , 8 9 ^ z c ( ) { : $XSXsXVX",
"sXcXMXfXcXjXM.y | { 2.9.6.6.=.y.u.$.@.( ( ` r 8 9 9 9 * * > > > 8 > > > , 9 9 I ' } e 9 jXBXsXMX",
"cXVXMXcXfXfXtX2.| e y s ,.6.l.t.y.O.X.r I n ^ 0 ^ ^ 9 > > > , > - * * = 9 9 I ( %.e 8 ^.CXsXkXAX",
"AXVXcXcXsXMXMX.Xt s  .| 2.k.l.=.l...0 } I x I _ ^ 9 , * > , , > l = * , q ^ z ` %.5 b uXAXkXVXxX",
"MXMXfXfXsXCXbXhXv.y | ..2.8.g.4.a.E U ` ( 0 ( 0 / ^ 9 > > > > > 8 9 = v / 9 ( } ( 3 $XSXzXVXVXsX",
"sXAXNXsXSXFXfXSXyX..u y a 4.g.g.=.-.%.%.( 0 U x ^ 9 , * > > 8 9 * - - 9 9 9 ( #.0 _ NXFXFXjXnXfX",
"fXfXfXfXfXfXfXfXAX#XY u ,.y <.7.i.i.;.} ) ` ( U l z / 9 9 ^ 0 9 : , b ^ ^ ] ) { 4 yXCXzXsXVXzXAX",
"fXfXfXfXfXfXfXfXsXHX$X/ i u ,.=.v.u.*. .| ` 0 q v ^ q 9 ^ / ^ 9 I v ] / 8 3 -.: #XZXNXzXMXVXsXBX",
"fXfXfXfXfXfXfXfXAXfXNX$Xq i a ;.9.=.*.&.o.$.` p ` ( 0 ^ _ _ _ ^ #.3 4 ^ U ) 9 /.CXGXdXsXVXVXkXMX",
"fXfXfXfXfXfXfXfXsXVXFXAX&X_ 7 a :.f.s.t.+.+.@.I ( ( ^ _ _ b _ ] 2 #.@._ w , #XAXcXsXxXBXVXjXnXMX",
"fXfXfXfXfXfXfXfXHXtXhXkXSXbXa.8 *.6.v.u.T t { _ 0 0 0 ( ^ ^ 0 0 _ ' [ 7 _ wXdXFXzXsXHXVXkXkXFXdX",
"fXfXfXfXfXfXfXfXBXMXsXCXjXxXHX/._ 0 e $.O.<.X.#.( ( ( ` ` ) ( ( 0 ( 7 r.sXDXGXsXVXMXCXkXkXVXMXsX",
"fXfXfXfXfXfXfXfXVXSXNXjXsXhXkXSXVX1X^.r.#.) 0 Y ( ( ( ( ( ) ( ( ! E &XHXFXVXdXMXMXMXkXsXfXGXfXkX",
"MXMXfXfXfXfXfXfXfXiXdXSXnXdXGXsXFXSXAXuXtX1X:X%X#X#X2X#X#X&X1XpXyXAXSXMXMXsXnXdXzXdXzXcXBXcXsXFX"
};
