/* XPM */
static char *e40770e59a2543668e07a9d29e17a64bU16LTLx5jIzy2IhX[] = {
/* columns rows colors chars-per-pixel */
"48 48 237 2 ",
"   c #030101",
".  c #070707",
"X  c #0A0504",
"o  c #0D0A05",
"O  c #0D0B0A",
"+  c #130400",
"@  c #130C03",
"#  c #1C0A03",
"$  c #120D0C",
"%  c #0F100D",
"&  c #151402",
"*  c #1A1504",
"=  c #171A02",
"-  c #1C1C02",
";  c #14120D",
":  c #1A130D",
">  c #1C1A0B",
",  c #141313",
"<  c #1A1514",
"1  c #1C1916",
"2  c #161819",
"3  c #1C1B1B",
"4  c #220D02",
"5  c #210D09",
"6  c #251304",
"7  c #2C1305",
"8  c #221C01",
"9  c #2B1A05",
"0  c #2A1509",
"q  c #241A0C",
"w  c #2E1A0C",
"e  c #371906",
"r  c #331C0C",
"t  c #211D12",
"y  c #281913",
"u  c #211D1C",
"i  c #321D11",
"p  c #1E2300",
"a  c #1E220E",
"s  c #1F211A",
"d  c #242302",
"f  c #2A2606",
"g  c #242A01",
"h  c #2A2B04",
"j  c #23230D",
"k  c #2C2D09",
"l  c #3D220B",
"z  c #322808",
"x  c #332D0B",
"c  c #2D3405",
"v  c #2F320A",
"b  c #33330C",
"n  c #363A08",
"m  c #242313",
"M  c #292512",
"N  c #2D2B12",
"B  c #22211D",
"V  c #2C281D",
"C  c #362617",
"Z  c #3A2513",
"A  c #352D13",
"S  c #2E3012",
"D  c #353313",
"F  c #3A3514",
"G  c #363C13",
"H  c #3B3B14",
"J  c #38351A",
"K  c #3C3B1A",
"L  c #1D1F22",
"P  c #231E20",
"I  c #1E2122",
"U  c #242323",
"Y  c #2A2625",
"T  c #2C2926",
"R  c #26282B",
"E  c #2C2C2B",
"W  c #342B22",
"Q  c #322E2C",
"!  c #34322D",
"~  c #3D3729",
"^  c #2A2E33",
"/  c #2E3134",
"(  c #343333",
")  c #393634",
"_  c #3C3A34",
"`  c #33363A",
"'  c #36393A",
"]  c #3C3C3B",
"[  c #421E05",
"{  c #44220C",
"}  c #4A250B",
"|  c #4D260A",
" . c #532B0D",
".. c #5B2F0C",
"X. c #5C310D",
"o. c #4B2A11",
"O. c #482B16",
"+. c #532C11",
"@. c #413B15",
"#. c #41341B",
"$. c #4E351A",
"%. c #443C1C",
"&. c #5B3213",
"*. c #5A3617",
"=. c #54331C",
"-. c #59351C",
";. c #67350E",
":. c #623514",
">. c #693510",
",. c #633B16",
"<. c #6C3B14",
"1. c #643C1C",
"2. c #6C3E19",
"3. c #713E15",
"4. c #422C21",
"5. c #493525",
"6. c #433D23",
"7. c #573723",
"8. c #443A35",
"9. c #423D3B",
"0. c #3A420B",
"q. c #3C4214",
"w. c #3E4419",
"e. c #3E403D",
"r. c #43420D",
"t. c #424315",
"y. c #434A15",
"u. c #4A4A14",
"i. c #42441C",
"p. c #4A451E",
"a. c #454B1B",
"s. c #4A4D1B",
"d. c #52521C",
"f. c #6A411A",
"g. c #7B4316",
"h. c #74431C",
"j. c #7A451C",
"k. c #7C491E",
"l. c #444422",
"z. c #4B4324",
"x. c #464A21",
"c. c #4A4C23",
"v. c #44442B",
"b. c #49482A",
"n. c #4B4B2C",
"m. c #514A27",
"M. c #544D2C",
"N. c #4D5325",
"B. c #4E512B",
"V. c #53552D",
"C. c #575929",
"Z. c #4B4A35",
"A. c #43413D",
"S. c #4A443C",
"D. c #534936",
"F. c #595334",
"G. c #575836",
"H. c #64492F",
"J. c #754927",
"K. c #7D4921",
"L. c #7E502A",
"P. c #5D6433",
"I. c #62602F",
"U. c #65683C",
"Y. c #353C44",
"T. c #3C3D41",
"R. c #403F40",
"E. c #3D4145",
"W. c #3B4249",
"Q. c #444343",
"!. c #4B4644",
"~. c #4C4A45",
"^. c #454549",
"/. c #494749",
"(. c #45494B",
"). c #4C4C4B",
"_. c #564B42",
"`. c #4F504A",
"'. c #52524C",
"]. c #5C544B",
"[. c #454C52",
"{. c #4C4F52",
"}. c #4E5153",
"|. c #4A5159",
" X c #545554",
".X c #575754",
"XX c #5A5955",
"oX c #54565A",
"OX c #56595B",
"+X c #5B5B5C",
"@X c #655842",
"#X c #715D4F",
"$X c #685E55",
"%X c #6C6945",
"&X c #61635D",
"*X c #68675B",
"=X c #71665E",
"-X c #555C64",
";X c #5C5E62",
":X c #5D6165",
">X c #5C626A",
",X c #626365",
"<X c #696964",
"1X c #64666A",
"2X c #66696D",
"3X c #6A6B6C",
"4X c #776C62",
"5X c #72736B",
"6X c #646A72",
"7X c #6A6E72",
"8X c #6E7175",
"9X c #6D737A",
"0X c #727374",
"qX c #797A77",
"wX c #72767A",
"eX c #76797D",
"rX c #864A1B",
"tX c #834B1D",
"yX c #8D521F",
"uX c #94541F",
"iX c #834D21",
"pX c #875227",
"aX c #8C5323",
"sX c #955928",
"dX c #865731",
"fX c #905F36",
"gX c #827770",
"hX c #747C83",
"jX c #797D83",
"kX c #778086",
"lX c #7D8185",
"zX c #7D838A",
"xX c #81868A",
"cX c #868B8A",
"vX c #868B91",
"bX c #8D9399",
"nX c #93999E",
/* pixels */
"K h d - - %.M.D b.b.@Xz.6 #.m.A z d x z.J A n.6.K J l.H G c.a.0.0.n 0.n q.x.f d l.F l.i.a.N.0.q.",
"D h K i.f k z.M.F.l.F.F.#.#.A 9 z.M.D F 6.M k 6.J J J k n V.N.n p c c s.C.c.G x k K c.b c w.y.y.",
"x.G i.x.D D l.i.l.x D D F K F %.x @.f F z.x F G.V.d o = d g g g a.N.G i.H d J v.8 j = = p b G h ",
"H h d p h i.c.D D F D d A b.n.@Xx d F F.%.x n.M.H = @ H N.a.a.y.N.P.C.G.B.D D J j D N J k = q.V.",
"i.a.w.v h b i.K b H F k D m > m !.V ! ] < Y ; 3 3 O _ ).1 u ~.~.= > m m v.F.J M D.v.N 6.n.l.V.B.",
"G.V.V.V.i.v b x.D h - & V Q.!., ).T ( Q.u ' < T E , Q..XY U )..XY 3 ) !.> D M ~ A Z.b.J k D c.n.",
"n c n a.N.w.q.x.S o ! .XQ ) /.$ ( 1 3 E , ) < T T Q .XE Y , ).Q.) T Q.<Xu o @ N J 6.J d k n.N.G ",
"q.c.c.a.x.x.K ; ( 9.t e.U 1 ( O Q.9.1 ( O 2 $ T Y < ' ( U < ] 1 ) ).1 ) Y ~.u . ; N J d g l.w.c.",
"0.a.y.h t.i.1 < ).( 1 U ) E Y $ E U 1 Y ; T < % O   O , < < T $ Y E < ! .X] U ) ( . d k N.G g a.",
"s.s.n n K T .X< X Q ) U ' 3   . . O                             . U , O '.B ! ).3 . < j N.t.c a.",
"s.r.h b ; Q ( ) 1 $ ( ( 3 .       O ; O O O $ O X $ . . O $ ;         , ! Y ) 3 O ] ).& G c c a.",
"s.r.- @ ] Y X U ( , O O     m E (.'.b.&X1X,X+X.X] 1X,X3XwXXXv.] ` 1 ;     u E , ~.&XT ; ; h q.a.",
"r.u.c X 9.Q.1 O O $     m _ _ lXnXcX<XoXoX2XeXeXoXzXjX:X+X,X0XlXjX5Xv.! X     ] A.3 T ] T > H g ",
"n C.l.Q O 1 E ( <     < ~.0XqX{.(.E.U # X ) eX7X/.wXT.. X V !./.9.}.lX*Xv.o   1 . ~.<X) ' > c h ",
"d.K E ] A.u O 3 ,   2 +XzX'.T 0 + 4 4 } r _.wX1XQ.xX'   7 2.} 7 X $ ( 7X*Xv..   U /.Y , $ o a n.",
"C.M , T `.Q.T O   . ).xX.X$ 9 2.*.o.+.h.r #X0X2XQ.wX` X 2.sX-.o.-.# 6 3 8X8XU   $ $ O e.A.3 1 G ",
"6.: . . 3 3 Y U   T xX:Xw l f.iXK.r &.h.9 #XwX:X(.8X` + 2.aXJ.+.2.# o.i W.xX).  X U A.*X_ . = d.",
"6.: Q.) , Y ;     /.bX^.{ h.k.iX2.e :.j.4 _.0X;X/.lX]   +.tX1.o.2.0 2.6 , wX8X3   . .   X $ - y.",
"C O )..X) ).Y $ $ +X9Xy >.pXtXh.+.+.h.h.# _.0X6X/.wX' X h.tXo.&.f.r aXr < 0X<XU   u u ) ~.E j d.",
"5.. O $ 1 u Y $ 3 7X>XC g.iXtX&.1.1.pX2.6 _.7X>XQ.lXE.X h.tX*.h.h.w aXl 5 !.0X!   < < E A.1 j u.",
"@Xo Y E ] '.'.  , 1X-XC rXsXaX2.sXpXsXh.e 8.,XT.Q.zX/ + iXtX1.pXtX0 j.O.7 Y hX(   O O T $X9.t I.",
"D.o 3 U U Y Y   , 7X7X: } &.| } |  .*.{ + u 2XR (.eXR   } +.e | [ X e # 4 Y 9XQ   U U ] ~.U $ d.",
"Z o 1 U u 1 1   ; ;XvXT.3 < Q ).v.U O Q ( R ;XY Q.7X+XS.! O Q Q /.E < ( 3 ( lX)   . . $ 9.A.> @.",
"5.O U ) ( E / X < ;XeX8X:X}.-X2X&XoX{.:X7XT..XY ] 7X7X3X:X(.;X3X6X,X{.7X(.R jX]   U U ~.5XQ.X t.",
"#.$ O u 3 1 1   , :X8XW O.-.=.O.O.=.-.Z C y oXI ] 8X' $ O.=.5.$.O.y =.C r Q hX)   O O < 3 O X d ",
"#.X ( ,X0XqX0X. O +X9XW <.tXK.g.} 2.aX,.$.C +XL ] wX` X h.yXL.=.,.w pX{ l S.hX(   < u $ , ; * b ",
"%.O 3 3 Q.+XOXO $ ,X9X5.:.<.h.j.&.f.aX*.#.C ;XI ) wXE.# j.pXiX*.2.w aXl 4 9.jX)   ) Q.( ( 3 * G.",
"M.:   . , O O   O oX6X~ ;.g.>.g.rXrXyXX.l z OXL T wX(.{ 3.....>.<.6 rXe e ].zX(   u u U u O @ D ",
"F.B ! E Y E Y X . {.9XS.L.dXJ.L.dXdXfX1.5.M oXL T 7X{.H.J.7.=.7.f.C L.7.-.S.zX)   )..X'..X).> c.",
"i., R ( E ^ E O o (.vX0X<XXX0X0X3X0X.X3XeX' OXU T 8XeXeX0X+X3X,X0X1X+X0X&X` eX)   u E E ) U m w.",
"@.X             . ^.lX] I 2 ( ' R ^ 2 ` e.s }.L T wX;X^ ^ 2 ^ R Y.( 2 ^ I / wX(   ) ! Y E Y T G ",
"c.. Y '.] U U     ^.jX! 9 r 9 9 7 9 r w z * oXU L 8X/.6 7 7 7 e 6 + e # + ] jXQ   '.qX.XQ.) ! x.",
"5.O E ~.E , , X   Q.wX) =.h.h.h.h.h.>.<.L.r ).L 3 9X).*.rXK.:. .1.0 iX{ { S.lX(   , U 3 , O > v ",
"4.q 3 T 1 O O     Q.9X~ &.iXiXtXk.h.:.2.sXZ (.3 u hX}.1.tXk.:. .f.w pX} o.S.jX)   O , 1 $ $ t k ",
"Z < .X<X).( ( .   Q.9X_ :.tXtXtXiXK.&.<.sXZ (.3 P 9X{.1.>.X. .} ,.w rX[ r A.kX)   ( ) Q.Q.( u i.",
"5.  , < 3 B u X   /.hXS.k.iXiXtXiXK.:.2.sXZ {.3 u lX{.1.uXaX<.:.f.w aXl r _ hX(   < < ! ) 3 O G ",
"F $ $   < A.~.O   ).bX<X=X4X=X4XS.gXgX=X$X! +XU 3 xX2XS.$XgXqX!.*X,X4XXX_.] 7XQ   $ < Y ).~., b ",
"8 < E Q ] /.Q.1   /.bX}.W.Y.[.-XI |.OX(./ U +XU 3 lX7X^ Y.>X6XL -X;XY.[.` E.wX(   Y '.XX~.A.3 n ",
"h . O < 3 < . .   /.vX_ # 4 6 0 6 9 9 6 6 @ oXL 1 8XoXy 4 0 0 4 0 @ 4 # + ) zX)   . < 1     . h ",
"n O T ] 3 3 3 ,   Q.hX8.:.<.>.;.:.| ..&.h.r (.3 1 jX+X-.3. . .2...6 :.e [ 9.lX(   3 3 1 u 3 , H ",
"n 3 ] Q.( ( ( , X Q.hX_.j.rXtXtXK.J.>.h.sXZ (.3 u vXoX1.uX2.o.h.h.0 k. . .8.6XT   / ( ( ) ) < H ",
"n , B < 1 u < X X Q.wX/.~._.!.!.9.Q.8.8.~.B +XU 1 jX+XQ.S.S._ 9.9.A.!.!.9.T.1XY   , u < < 1 O n ",
"q.Q.<X/..X&X' X   /.zX8XlXlXhX9XlXwX8XlXlXwXxXI < eXzXwX9XeXwXlX8XwXjX8XwXlX7XU   ' &X).Q..X3 t.",
"P., u u u 1 u .   T /.] Q./.).Q.] 9.Q.Q.] Q.}., ; Q.Q.Q.Q.R.] !.Q.Q.] 9.Q./.' <   3 1 3 U 3 . t.",
"V.t V m * @ V V q M * > M j j V M m j > M M j q M > m * * * > * > t > > q V V j * o ; $   1 W c.",
"l.c.b K F f 8 m.@.x 8 f i.K k b c g g p t.c.x.N.M.x G G H H @.c.v.G.b.G.n.G.c.b h s.s.C.a.U.U.%X",
"G.Z.D d 8 A F #.M.#.x F z.c.H k i.b H d H H F i.m.z b p.p.M.%.p.- j N G.n.h d d b a.t.G.H t.b G ",
"D d - * * %.F.z.z.z.F.m.F F H l.x.G a.h H b d h %.p.M.V.H p.x z j j - N v.h b p w.t.H U.t.t.h H "
};
