/* XPM */
static char *_7ebb04dd22f4ab5d3bad488a903c0d60evJ5yXFbQwwjwHc[] = {
/* columns rows colors chars-per-pixel */
"48 48 52 1 ",
"  c #262D0F",
". c #2A2F12",
"X c #393D16",
"o c #1C230F",
"O c #353C13",
"+ c #2B330F",
"@ c #3B4218",
"# c #32380F",
"$ c #303715",
"% c #404418",
"& c #393F10",
"* c #3D4312",
"= c #232811",
"- c #474A14",
"; c #555815",
": c #46491B",
"> c #434817",
", c #2F3113",
"< c #424710",
"1 c #51561B",
"2 c #515314",
"3 c #373814",
"4 c #3E3D16",
"5 c #494E19",
"6 c #494E12",
"7 c #5A5B15",
"8 c #5F601A",
"9 c #171D0C",
"0 c #4D5115",
"q c #20280B",
"w c #4E4B16",
"e c #65651B",
"r c #583D2B",
"t c #595B1C",
"y c #463022",
"u c #4E4F1D",
"i c #3E2A1E",
"p c #36241B",
"a c #4F3426",
"s c #363019",
"d c #0E150B",
"f c #6E6A1D",
"g c #2C2915",
"h c #44381F",
"j c #55501B",
"k c #291E14",
"l c #4E4320",
"z c #79741F",
"x c #1F1810",
"c c #6A4B34",
"v c #66591F",
"b c #684031",
/* pixels */
"$.qo93rarccrqirppppraiyrhs5+>2>*+%#O>5o &<:%66O5",
"&++#q*<wwrc>+ypphlhssiy4@. :q2t,q $w-6&+,3&OO>>@",
"-,:-*+>-:yh 5shh#$+-Xs#;todd9  o-0%-0q#*xxk99#@.",
"4.=do<<$s,gx30j;+9*1@$--,dd#ww4wwf77@+@,kyp+ o$v",
"lh44.*&@3&O@=:.5%&-72@ueO&+#78f%g41;513prci30:ju",
"lvvj@#&%. $ouupy47078$$;1fztt@2=306  .xayrh*#$::",
"43,%6@$6-+%O@#ic577XX9.,$:42%=$=38z7O+gayaa9=0>:",
"X5:jj@16+21@qd ghs.&3$% +% o9d77+@$@@**syiy= @u%",
"&wj=&2,X+55$+*q ,$+ -&*<X%># 4u;<+=%& 67>@*$5& %",
"04s>27o$O2>1<*#<$@>+1;#&=%0e1$.,3X>-$O;=Otj-15 :",
"2%=4e:88-u#-&<ze>%%,0t5,<f6%02-ut127*<w  X60:% %",
"6XgX6#ufejw26e-:t@4:w0-tf719q$O>-@%;5*e8%O0tO$%2",
"0>$,. .jslt72%=953%4+,OX9o@.=,oOft$0*+9 &f65+X@o",
"Oufe:.:j3g3u%XX++ X:..**3.$X,3gX15o *24:8;5et$.,",
"6zzv.2v%vj7e8e;et=%e8508;1%4Xwh43@3g<O*>1%#05@%%",
"8fz.+fet:w0t:d#;10:$$t0@%4sO<%4,+.:$3x3%k45.q>@@",
"r.&*f5*1:%O%.,7;w%+o9+$x$=4255$#*,4%apapkhu6*$$u",
"ig*<:q<6wj*$#>t&h$.xksik 9$%78&>.u4uyiaiys:e>01l",
"ia4=.#;1-;8%818-4>,kryipipx=w-<#$,,:ggxi: OO-%1j",
"rryipv;0=-8$t;%4=Okiapprrrp&.oo =q&*;7ig #+&e81j",
"bryry,&3q%1>o&++#kpahshcrag:&--$ou;26=p,5t;28tzc",
"baiyg,%<,>60512<&4a:w;t@u34w*t$$d==<okis54t#,.hb",
"paas*wtjg-O O20>1X,$>tf;2Xt#>X 9,+o#.ir-6et2w4wy",
"yyi44%44,4+q $XX<-$O.@>-<.O+-jw,#<O5t>&02:*0wwth",
"yphj,=d $.oq%-4qq#+q#5.*%@#*1o3t7O$#+%@dq <-#33o",
"yy# 3.9g%ww#OOO&# *6ft&<q .%$3e*+ .**+&# +>jX,=O",
"ah&=1:4,4wu,#.4-&26<-482*odd9o o+;66;6o#< 999d.r",
"c59  x=4-.oo do-;7; o-et$9dq&-. <8z22Xq#*&6X+qor",
"%8>g,,=%%@$##$  1&eO#67<O+ +-jlk= &77506;72@60Xl",
"5*;zvjO.&X=qOo 2O9#;7-ff8ezwt%laiipgo+O<O1@>86.@",
"O>#=x,#O.>uq= +t.X06f;+XO8888, piavlrsodd#&%=9+O",
":$kpk6;O@j4*<>+okxsX#3<#+@q.,d+2 =>hap3*9.u=dd@5",
"@iaryp,&@%.*t%  iaypkxg+&0*+oowf;+ gXss<-X3+9 +o",
"syarrys29$X**5.<4arrrbp5O@51>%%$-#++@3,72w:1&:1O",
"iaraarl- O 1O60<#64shhkys;28e<#X#2*;0#*>dou6<>@#",
"313pirl&ez2>#+* ef7@$+3wefj.&02j8206;>-7>X=60>O%",
"X*<ggh&q 177;28;7oO1 O&586t 9,.3*-@%8>321**--59X",
"oouX#qo9o2==55;.Xdo* OX=d9$$o,g=tzu.>&+9o&e8@O$X",
"=+O1fe: Xj*=9:u*>OO, Xu<333O.33 5u%o,*;*58;%8e%=",
"XO7zfu=w8.27;81f1781=:eeu1:X$j@$%$@..-.X015 5:@%",
"$>eefo ftu$:>uu=d--1u:X X:=+<<@.+ X5+-$8e:;0$o$%",
"$%,.X&f>$u@%,O$9#705@$o.$ #7<1O+*O##-1%;151t%*$.",
"@3-&<<59O<<-& = 50#X... Xo#5jt*&#.0#1oo.1>$O8%*>",
"eww;&=.o<-O6;%@0:1XX%uX=@ +=-l%.kk,X5oq+1t$O@X>@",
"5:q*999z0-=,eO%e-5:+u1X%w%u,iypiyykX%7e*X$ O=>tu",
"15<#&,xl43ko5&=qOo. O1:uwgssahllrc8;28-$ -10:zez",
"::.qosiarsph%wX+@#+ &&O4j,3uh;@%od$%tgoo.1@t>$$%",
"$,dd9hbbbrclOshl:O%ssskil42;@>$.9qo.%= q3-:t>>+$"
};
