/* XPM */
static char *TERRAIN_SET_1___DAY1706523758[] = {
/* columns rows colors chars-per-pixel */
"48 48 8 1 ",
"  c #4C2F33",
". c #714336",
"X c #6A5C50",
"o c #477E47",
"O c #9E633B",
"+ c #8A7961",
"@ c #75A44C",
"# c #A9CC52",
/* pixels */
"################################################",
"################################################",
"################################################",
"###########@##@###@#####@########@##@###########",
"##########@o@@o@@#o#####o##@###@@o@@o@##########",
"##########o oo oooo@###@o@@o@##oo oo o##########",
"########@#@o       o@@@o oo o@@o    o@#@########",
"########o@@o  .     ooo      oo  .  o@@o########",
"######@o oo  .O....     .       .O.  oo o@######",
"#####@o     .OOOOOO.   .O....  .OOO.     o@#####",
"######@o ...OOOOOOOO...OOOOOO..OOOOO... o@######",
"######@o.OOOOOOOOOOOOOOOOOOOOOOOOOOOOOO.o@######",
"#####@o.OOOOOOOOOOOOOOOOOOOOOOOOOOOOOOOO.o@#####",
"####@o.OOOOOOOOOOOOOOOOOOOOOOOOOOOOOOOOOO.o@####",
"#####@o.OOOOOOOOOOOOOOOOOOOOOOOOOOOOOOOO.o@#####",
"#####@o.OOOOOOOOOOOOOOOOOOOOOOOOOOOOOOOO.o@#####",
"####@o.OOOOOOOOOOOOOOOOOOOOOOOOOOOOOOOOOO.o@####",
"####@o.OOOOOOOOOOOOOOOOOOOOOOOOOOOOOOOOOO.o@####",
"#####@o.OOOOOOOOO..XOOOOOOOOOOOOOOOOOOOO.o@#####",
"#####@o.OOOOOOOO. ..OOOOOO#ooOOOOOOOOOOO.o@#####",
"####@o.OOOOOOOOOOOOOOO#OO#@@OOOOOOOOOOOOO.o@####",
"#####@o.OOOOOOOOOOOOOO##.#@@.OOOOOOOOOOO.o@#####",
"######@o.OOOOOOOOOOOO.#@@o@...OOOOOOOOO.o@######",
"######@o.OOOOOOOOO.@##o@@@ ..OOOOOOOOOO.o@######",
"#####@o.OOOOOOOOO.@o@@#o@..OOO@OOOOOOOOO.o@#####",
"###@o.OOOOOOOOOOOO..o@@@. O@OOoOOOOOOOOOOO.o@###",
"####@o.OOOOOOOOOOO.  oo@     O.OOOOOOOOOO.o@####",
"####@o.OOOOOOOOOO. . .. ..... OOOOOOOOOOO.o@####",
"###@o.OOOOOOOOOO@O  ....O.....OOOOOOOOOOOO.o@###",
"####@o.OOOOOOOOOo++.......++...OOOOOOOOOO.o@####",
"#####@o.OOOOOOOO.XX+ ..OO XX..OOOOOOOOOO.o@#####",
"#####@o.OOOOOOOOO..OOOOOOO..OOOOOOOOOOOO.o@#####",
"####@o.O..OOOOOOOOOOOOOOOOOOOOOOOOOOOO..O.o@####",
"#####@o.oo.OOOOOOOOOOOOOOOOOOOOOOOOOO.oo.o@#####",
"#######o@@o.OOOOO..OOOOOO...OOOOOOOO.o@@o#######",
"#######@#@o..O...oo.O..O.ooo.OOO..O..o@#@#######",
"#########o.oo.ooo@@o.oo.o@@@o...oo.oo.o#########",
"#########@o@@o@@o##@o@@o@###@ooo@@o@@o@#########",
"##########@##@##@###@##o#####o#@##@##@##########",
"#######################@#####@##################",
"################################################",
"################################################",
"################################################",
"################################################",
"################################################",
"################################################",
"################################################",
"################################################"
};
