/* XPM */
static char *_f15e426614a4054b50d9cf4c1b67fed4Zwxo8nvN2X4E7NL[] = {
/* columns rows colors chars-per-pixel */
"48 48 249 2 ",
"   c #1D1B02",
".  c #191702",
"X  c #100F01",
"o  c #241D02",
"O  c #251800",
"+  c #1D2101",
"@  c #242402",
"#  c #2B2402",
"$  c #252B02",
"%  c #2B2C01",
"&  c #2C2A0B",
"*  c #262509",
"=  c #352A06",
"-  c #2D3302",
";  c #2D320B",
":  c #273001",
">  c #333203",
",  c #353D04",
"<  c #33350C",
"1  c #3B3C0D",
"2  c #383808",
"3  c #2A2716",
"4  c #352D15",
"5  c #2E3514",
"6  c #343314",
"7  c #3A3515",
"8  c #353C13",
"9  c #3B3C14",
"0  c #3C3B1C",
"q  c #37351A",
"w  c #3B3824",
"e  c #453906",
"r  c #443917",
"t  c #452F13",
"y  c #463A26",
"u  c #4B3D30",
"i  c #3B430B",
"p  c #3D4114",
"a  c #3D431B",
"s  c #3D4B14",
"d  c #3F4320",
"f  c #474508",
"g  c #564904",
"h  c #444314",
"j  c #444915",
"k  c #43441C",
"l  c #454A1C",
"z  c #4B4C1C",
"x  c #4A4717",
"c  c #514C1E",
"v  c #4B511C",
"b  c #475117",
"n  c #595718",
"m  c #52540B",
"M  c #64540D",
"N  c #6C630E",
"B  c #444323",
"V  c #454B22",
"C  c #4B4B25",
"Z  c #4C442A",
"A  c #4C4C2B",
"S  c #484527",
"D  c #564829",
"F  c #4C5325",
"G  c #4B5429",
"H  c #53542B",
"J  c #5B5D2B",
"K  c #565625",
"L  c #4B4A36",
"P  c #564C35",
"I  c #5A5C34",
"U  c #565537",
"Y  c #64582E",
"T  c #5C632B",
"R  c #68672E",
"E  c #656636",
"W  c #747134",
"Q  c #686842",
"!  c #74724A",
"~  c #5F5342",
"^  c #85761B",
"/  c #837D41",
"(  c #B28E1D",
")  c #B5AE38",
"_  c #9D983D",
"`  c #DDBB27",
"'  c #DDBC3B",
"]  c #D9B835",
"[  c #CDB234",
"{  c #E2BD28",
"}  c #E1BC33",
"|  c #E3BD3C",
" . c #EABC3C",
".. c #E3B13E",
"X. c #CEAC21",
"o. c #D0C51D",
"O. c #DCC425",
"+. c #DCC23C",
"@. c #DCC83A",
"#. c #DDD838",
"$. c #CBD22D",
"%. c #E7C52B",
"&. c #E4C33B",
"*. c #E4CB3D",
"=. c #EACC3C",
"-. c #E7C735",
";. c #E7D83C",
":. c #F1D03B",
">. c #E4E428",
",. c #EDE934",
"<. c #DDE22E",
"1. c #909150",
"2. c #99A651",
"3. c #B0AE56",
"4. c #9C946D",
"5. c #A7B567",
"6. c #B9B469",
"7. c #ADAD71",
"8. c #A29D63",
"9. c #C9BA4A",
"0. c #DEBA43",
"q. c #D4B659",
"w. c #E3BD44",
"e. c #E7BA48",
"r. c #E6BC57",
"t. c #C5BA69",
"y. c #C3BE7A",
"u. c #B9C85B",
"i. c #B9D25D",
"p. c #ABC451",
"a. c #AAC567",
"s. c #B8D269",
"d. c #AAC776",
"f. c #B4C678",
"g. c #B6D37B",
"h. c #B7CB63",
"j. c #DECD43",
"k. c #DCC747",
"l. c #DAD847",
"z. c #C6CB59",
"x. c #D8C758",
"c. c #C8D459",
"v. c #D7D758",
"b. c #CAC84A",
"n. c #E3C344",
"m. c #EAC445",
"M. c #E3CA44",
"N. c #EACB44",
"B. c #E4C54B",
"V. c #EAC54B",
"C. c #E4CB4B",
"Z. c #EBCB4D",
"A. c #F2CC49",
"S. c #E2D243",
"D. c #ECD244",
"F. c #EBDA44",
"G. c #E6D44B",
"H. c #EBD44C",
"J. c #E4DB4C",
"K. c #EBDC4B",
"L. c #E5DB46",
"P. c #F3D74A",
"I. c #E4CB52",
"U. c #EBCC52",
"Y. c #E8C656",
"T. c #F1CC51",
"R. c #E4D354",
"E. c #E5DC54",
"W. c #EADC52",
"Q. c #EBDC5B",
"!. c #E9D55A",
"~. c #F3DE5C",
"^. c #F3D655",
"/. c #DEE34D",
"(. c #E4E24C",
"). c #ECE247",
"_. c #F3E74A",
"`. c #ECE454",
"'. c #ECE25C",
"]. c #E5E35A",
"[. c #F5E65A",
"{. c #CAC769",
"}. c #D7CB69",
"|. c #C8D667",
" X c #DAD867",
".X c #C7D876",
"XX c #D7D776",
"oX c #D5CB74",
"OX c #E8DA68",
"+X c #F2DE6B",
"@X c #F1DD62",
"#X c #E8DA74",
"$X c #F3DD73",
"%X c #F2DB79",
"&X c #E8C763",
"*X c #D6E577",
"=X c #D7E269",
"-X c #ECE465",
";X c #E5E36A",
":X c #EDE36B",
">X c #E8E969",
",X c #F3E363",
"<X c #F4E46B",
"1X c #F8E969",
"2X c #E9E577",
"3X c #F2E472",
"4X c #FBEB73",
"5X c #F6E877",
"6X c #EFF773",
"7X c #9E9585",
"8X c #A59D82",
"9X c #B4AA90",
"0X c #CABC8B",
"qX c #C2BEA3",
"wX c #B6CB85",
"eX c #BBD58A",
"rX c #BADA99",
"tX c #AECD91",
"yX c #BFE195",
"uX c #B9D9A9",
"iX c #B5D5B6",
"pX c #BCE2AC",
"aX c #BCE3B2",
"sX c #C6D889",
"dX c #D7DA85",
"fX c #C9DB94",
"gX c #D9D994",
"hX c #D8C58D",
"jX c #E5DD87",
"kX c #E9DB93",
"lX c #CDE289",
"zX c #D8E489",
"xX c #CAE498",
"cX c #D6E798",
"vX c #E8E885",
"bX c #F8E986",
"nX c #E8E998",
"mX c #F5F195",
"MX c #F2F087",
"NX c #C5DCA6",
"BX c #DDCDAB",
"VX c #C8E5AA",
"CX c #D7EAA2",
"ZX c #C7E8B6",
"AX c #E7F5A5",
"SX c #F3ECAB",
"DX c #BDDAC2",
"FX c #FAEFC2",
"GX c #C2E1C5",
/* pixels */
"w & @     r P 6 Z Z Q k S 0X9X8X= o 4 Z w 4 A 0 9 6 B 0 9 V j p , , i , i j % @ B q B B l G i s ",
"6 & 0 k % ; Z P P Z H D 4.4.! y ! c 4 7 y 3 & B 9 9 q & < I F - @ - , b T b 8 = & 0 C 7 ; a s s ",
"l 1 k B 6 6 B B C # 7 < ~ 9X9X~ ! y & w S 4 9 H U @ X   @ @ $ % V H 8 a 0 + 0 S o * . . @ < 8 $ ",
"1 % @ @ & B Z 7 < 7 0 o 4 P L 7XU 4.7XU B 4 C H 0 . X w A S v j G E I I U q 6 6 * 4 4 q % . p H ",
"j j k < $ 6 h p ; p 6 4 y Z 7 9XZ qX9XQ H ; F H $ < < k v J R f ; a A B L U q 3 P Z 3 w A Z H A ",
"K K H H B ; < l < % & 6 B S 0 qX8X8XBXA U 8 p G J Q E E K x b - 6 a U 5 * q 3 w 4 L L 0 & 6 C A ",
"< < < l v i 1 F a 8 0 q h h 6.2.2.2.2.5.fXd.wXsX.X.XXXzXvXvX2X2Xi n W n = % & r 0 w q + & A A 8 ",
"p C l l v l l z ; C I 0 .   5.1.5.5.f.f.f.wX1.5.2.2.u..X*XvX#X2XgXgX7.W z 2 y 6 6 6 0 * * d B C ",
"a B j % i v - p 9 k b - 2.dX|.3.i.i.p.p.g.g.d.d.a.5.) p.l.].`.(.;X>X#X2XvXvXf n 1 z ; ; G 8 @ V ",
"B A 1 > v j % % - C R 1.zXdXu.u.p.p.a.s.d.d.g.g.s.a.p.p.b.].[.`.>X;X;X XvXvXgX1.1 K G V C l 8 a ",
"z r % h Y E K E m 6.vXvX|.c.|.h.a.a.d.g.tXtXuXuXuXuXf.7.u.XX6X>X>X-X`.'.[.'.2XOXjXf v v l 8 - s ",
"z h + , c 2 c 7.dXnX2X*X|.i.u.i.d.d.d.d.rXyXuXuXNXuXsXf.u. X>X6X>X6X[.'.!.'.2XOXdXN v j 8 < a V ",
"f j 2 f = O R gX2XMX6X=Xi.z.s..XwXd.d.d.tXpXDXiXDXDXNXuXwXfXnXnXmXmX:XOX[.K.W.W.}.#Xn f - a a @ ",
"2 J R J f Y kXnXvX2X=Xu.i.|.lX.Xd.5.wXeXtXuXGXiXDXDXVXNXsXgXnXmXmXmX4X<XF._.G.W. X#X1.n V < $ ; ",
"x R ! K e kX2X5X6X;X|.z..X.XsXg.u.u.s.g.eXrXaXpXaXaXxXyXsXcXAXAXFXSXbXbX_.P.F.F.OX XgXn I 9 q S ",
"J R W 2 g nX2XbX>Xv.z.z..X.Xf.a.|..Xs.s.xXyXtXpXaXaXyXeXsXcXAXAXFXFXbXbXP.K.;.F.OXOXgXf @ k B 6 ",
"y 4 g SX<X<X:X4X6Xc.u..XNXwXd.xXfXeXtXrXuXuXZXuXrXrXlXlXXXvXbXbXbXbX5X$X`.E.(.(.k.@XU.!.SX2 , K ",
"u 3 e SX4X<X<X:X>Xc.s.*XfXtXeXCXxXwXtXrXuXuXaXaXVXVXsXfXvXvXbXbXbX5X5X$XE.E.(.(.I.I.I.I.3.g j s ",
"4 y _ bX,X4X4X4X>Xv.|.*XeXeXcXcXcXsXrXfXVXNXrXVXxXxX.X.X2X2XOX3X5X5X+X+XE.E.(.).I.I.C.C.6.g J K ",
"r P 3.jX@X<X<X1X>Xv.|.*XfXfXCXxXcXxXfXVXZXVXNXVXxXsX.XXX2X2XOXOX:X:X+X@X!.E.L.J.@XB.H.Z.{.N F j ",
"Y D 3X5X~.,X4X<X>Xv.z.|.zXzXxXfXcXxXfXCXcXCXnXzXXX}. X2X-X-X-X'.Q.Q.@X!.!.R.J.l.^.n.D.A.t.N E E ",
"D P bX$X'.1X+X<X>X=X|.|.lXzXfXcXCXcXfXcXcXAXnXdX|.|.OX2X-X-X-X'.Q.Q.!.!.R.!.J.J.T.B.N.&.oXe h z ",
"= BX,XQ.K.[.<X4X3X;X=X|.|.XXdXnXAXcXdXzXjXjX#X}.I.R.W.W.J.J.E.J.K.K.!.U.R.R.J.J.T.n.=.=.oXN h r ",
"t BX,X!.~.1X<X4X;XOX2X X|.*XzXnXcXcXdXzXXXXXx.x.!.Q.W.G.W.J.l.`.K.K.!.U.R.R.J.l.| Z.-.P.oX^ c h ",
"t BX[.W.P.K.<X1X:X:X;X;X>X X}.vXzXdX2X2Xx.9.n.B.Z.P.D.=.S.F.L.L.;.;.T.T.R.R.G.G.m.m.-.-.}.M 9 @ ",
"t BX[.[.F._.<X4X3X<X;X;X Xv.}.XXzXvXXX{.9.9.B.B.N.A.D.D.F.K.).).;.;.U.U.C.C.j.j.m.m.-.=.{.g > > ",
"e 4.].].F.).<X4X<X<X].].v.v.x.9. XOX9.) [ k.Z.m.m.m.N.N.D.H.S.*.=.=.Z.V.M.n.j.@.m.| A.&.t.o @ I ",
"K 4.J.E.F._.<X4X<X-X].-XQ.Q.v.9.9.9.) ) B.!.T.n.A.A.A.A.H.H.S.j.%.%.n.n.j.M.M.j.T...P.=.3.2 @ 6 ",
"K D :XOX_._.@X1X<X-X'.`.!.!.H.W.j.[ [ +.Z.Z.B.0.V.Z.Z.V.N.Z.N.M.} }  . .+.n.*.*.T.e.T.] 3.g w A ",
"h c -Xv.;.).Q.,X<X-X'.`.!.R.H.~.G.j.M.C.B.n.Z.V.T.U.B.n.n.M.+.+.` }  . .' ' @.*.w.w.T.' t.e 5 0 ",
"h % ;X;X;.#.R.Q.,X'.`.).Q.!.D.D.*.=.N.=.n.m.U.B.B.e.0.B.U.Z.&.&.} }  . .} } &.=.e.V.U.0.3.o 5 5 ",
"z 2 z.3X;.;.R.Q.Q.,X[.`.~.Q.P.D.D.D.D.=.m.m.0.X.( ( ( [ n.0.] ] } }  .e.&.&.=.D.e.^.T.n.kX# 0 A ",
"y t r 9XOX XL.).~.[.,X~.+XOXl.(.K.S.*.@.C.M.n.' ' 0.0.' n.V.' [ o.o.n.n.e.e.%.%.=.=.XX_ @ o 5 ; ",
"t t r 4.3XOXK.L.[.[.~.~.+XOXl.(.K.S.D.C.M.n.B.n.B.V.w.w.n.n.| ' o.O.n.n.e.e.%.%.;.;.{.3.k H A $ ",
"= y D y e kX;.;.,.,.%X$XQ.Q.R.E.R.C.U.U.U.U.Z.B.V.m.| ' ' ] ' &.+.+.w.n.m. .%.=.R.I.t.N 9 9 V V ",
"D r r = e kX).#.>.,.$X$X@XQ.Q.E.U.C.C.C.B.C.V.n.w.w.' ' ] ] ] ' ] ' ' w.&. .%.=.R.C.oXg F k 8 < ",
"= x r ; = 7 -Xv.>.>.F.).#X$X$X$XW.G.C.M.] +.-.-.%.%.%.{ %.%.O.O.e.e. . .-.%.M.H.oXt.n f H h < < ",
"o 9 k r 4 # - v.>.>.;.).$X$X3X+XG.M.M.j.+.@.-.-.-.-.%.` %.%.O.` e.r.|  .%.-.C.H.oXt.n c k 1 < < ",
"- @ < H E T c 7./.l.>.,.[.'.%X#XI.k.I.U.n.B.N.&.&.&.} ` } | } ] w.e.{ %.-.-.}.}.7.R J z J T h % ",
", h I ! R j 1 4.(.l.>.>.'.`.%X%X!.R.!.!.k.' &.&.} } } ] | &.| | w...{ %.%.%.x.x./ n 1 > l z k 1 ",
"i i T T Q @ > J 1.gX#.#.<.;.3X<X#XOXOXY.Y.k.Y.[ 0.e.r.Y.Y.r.r.r.} } :.%.@.@.dXt.K K K v 1 $ ; 9 ",
"i - i : 9 9 J K 2 8.$.#.,._.OX+X$X#XOX&X!.Y.Y.e.e.Y.r.r.r.r.&Xr.:.A.` O.G.G.t.6.I C v F v , < 9 ",
"i , k a 9 z x   = z 2 1.l.].E.J.K.L.L.K.F.F.*.=.=.*.*.&.C.M.I.C.M.+.k.k.{.}.f % H 9 - j z l 0 k ",
"T b k F > % % > c Y > 1.l.b.E.,X`.`.K.L.#.O.O.=.=.@.&.' n.+.C.Z.+.M.C.k.{.#X% 2 I F , i i j k k ",
"H V & k 4 o # E k r 7 7 c 7.v. X].].E.].E.l.j.@.@.@.j.@.j.j.k.k.XXdXy.f 1 E I k > p - > @ l V C ",
"V V < 0 r & o c 0 <   & h x ;Xv.c.v.l.l.E.J.S.@.@.@.S.j.j.C.k.k.{.oX6.n K J k - % z z K l E Q ! ",
"U A 4 * o 4 4 r A 9 4 q Z Z 2 > k < r x 1.7.0X0XhXhX0XhX0XhXhXgX4.o 4 U L 3 $ @ > l h J 8 k ; 8 ",
"6 @     O y U Z S S P L q q e h x 9 z # e 2 # = e g M M e g e = # o   4 L 3 6 + i j 1 E k k $ 8 "
};
