/* XPM */
static char *_c3ef09b62d3436ded62cb1f70e2c088LDn7KFFbABlZNG62[] = {
/* columns rows colors chars-per-pixel */
"48 48 13 1 ",
"  c None",
". c #452616",
"X c #6C8051",
"o c #6E3D25",
"O c #798E5B",
"+ c #52603E",
"@ c #1E110A",
"# c #313A25",
"$ c #242B1B",
"% c #2B180E",
"& c #8C4E30",
"* c #849C64",
"= c #F5F2E6",
/* pixels */
"                                                ",
"                                                ",
"                                                ",
"                                                ",
"                                                ",
"                                                ",
"                                                ",
"                                                ",
"                            ###      ###        ",
"                           #OOX#    #OOX#       ",
"                          #O=.O#   #X=.O#       ",
"                          #*&&*#   #O&&*#       ",
"                          #O***#   #O**#        ",
"                           #XX#     ###         ",
"                           #OX#     #X#         ",
"             @@@@@@@@@@     #O#     #X#         ",
"            @....oooo%.@@   #OX#    #O#         ",
"           @ooo.....oo%..@  #XO#    #O#         ",
"          @o&&oo.....oo%..@ #XO#$   #X#         ",
"         @o&&&&oo.....oo%..@ #XO#$$$#X#         ",
"        @%%%%%&&oo.....oo%.@ #XOOXXX+$#         ",
"       @......%&oo.....oo%..@#XOOOOXX+$#$$      ",
"      @.oooo...%&o......oo%.@#XX++XXXX+XO$      ",
"      @o&&&oo..%&oo.....oo%..#OXO$XXXX+$$       ",
"     @.&%%%&oo..%&o......o%..#O$$XXXXXX$        ",
"     @&%&&o%oo..%&o......o%..$OOOXXXXXX$        ",
"     @o%&o.%oo..%&o......o%..$OOOXXXXXO$        ",
"     @o%o..%oo..%&o......o%.@XOOOOXXXXO#        ",
"     @o%o.%ooo..%oo.....o&%.@XOOOOXXXXO#        ",
"     @oo%%o&o...%oo.....o&%@+XOOOOOXXXOO#       ",
"     @o&oo&oo...%oo.....o&%@+XOOOOOOXXXO#       ",
"     @.o&&oo....%o.....oo&@++XOOOOOOXXXO#       ",
"     @%.ooo....%oo.....oo&@+XOOOOOOOXXXOO#      ",
"     @o%.......%o......o&@++XOOOXXOOXXXOO#      ",
"     @oo%.....%oo.....oo&@+XOOOXXXXOOXXOO#      ",
"      @oo%%%%%oo......o&@++XOOXXXXXOOXXXO$      ",
"      @.ooooooo......oo&@+XOOXXXXXXOOXXXO$      ",
"       @.ooooo......oo&@++XOXXXXXXOOO+++O$      ",
"        @..........oo&&@+XOXXXXXOOO++++++$      ",
"        @o........oo&&@++XXXXXXOO++++++++$      ",
"       $X@o.....ooo&&@++XXXXX+++++++++++$       ",
"      $XXX@ooooo&&&@@++XXX+++++++++++++$        ",
"     $$$$$$@@@@@@@@$$$$$$$$$$$$$$$$$$$$         ",
"                                                ",
"                                                ",
"                                                ",
"                                                ",
"                                                "
};
