/* XPM */
static char *_aba117d783f4edf8b7ba07168bf31434P5MpjZGrjA5YCp7[] = {
/* columns rows colors chars-per-pixel */
"48 48 233 2 ",
"   c #0C0E00",
".  c #1B1902",
"X  c #1B1517",
"o  c #1C1A1C",
"O  c #330C02",
"+  c #231C01",
"@  c #2A1807",
"#  c #38140A",
"$  c #281714",
"%  c #241B1C",
"&  c #2A1E1C",
"*  c #361C16",
"=  c #3B1C14",
"-  c #1E2300",
";  c #242302",
":  c #252B02",
">  c #2A2B04",
",  c #24230B",
"<  c #2B2508",
"1  c #2C2C0A",
"2  c #322909",
"3  c #332D0B",
"4  c #2D3404",
"5  c #2F320A",
"6  c #32330C",
"7  c #363908",
"8  c #2D2C14",
"9  c #292619",
"0  c #2C231D",
"q  c #372716",
"w  c #352D15",
"e  c #34231C",
"r  c #3C231C",
"t  c #3C2B1B",
"y  c #2E3219",
"u  c #353313",
"i  c #3A3414",
"p  c #353B14",
"a  c #3A3B13",
"s  c #35371B",
"d  c #3B351A",
"f  c #3B3A1A",
"g  c #1D1D21",
"h  c #261F21",
"j  c #301F20",
"k  c #242323",
"l  c #262726",
"z  c #2C2323",
"x  c #2B2B25",
"c  c #2A262A",
"v  c #2D2B2C",
"b  c #322523",
"n  c #3B2521",
"m  c #342B24",
"M  c #3C2A24",
"N  c #342C2B",
"B  c #3B2D2A",
"V  c #2E3028",
"C  c #343424",
"Z  c #3C3B23",
"A  c #393827",
"S  c #33322C",
"D  c #3D322D",
"F  c #2E2D31",
"G  c #312E32",
"H  c #3B2E30",
"J  c #2F3234",
"K  c #343334",
"L  c #3A3535",
"P  c #3C3B33",
"I  c #36363A",
"U  c #393738",
"Y  c #3C3B3C",
"T  c #431909",
"R  c #4D220C",
"E  c #59270B",
"W  c #5A310E",
"Q  c #45291B",
"!  c #572B14",
"~  c #433C16",
"^  c #41341B",
"/  c #433D1C",
"(  c #612A0C",
")  c #6A340E",
"_  c #642F11",
"`  c #6B3512",
"'  c #6E3A15",
"]  c #683818",
"[  c #773D16",
"{  c #733E1A",
"}  c #422C24",
"|  c #442C27",
" . c #443223",
".. c #4A3527",
"X. c #433C24",
"o. c #44322C",
"O. c #523528",
"+. c #423431",
"@. c #4B3632",
"#. c #433A34",
"$. c #4D3A33",
"%. c #413C3C",
"&. c #4C3D3A",
"*. c #533D34",
"=. c #583E36",
"-. c #613B28",
";. c #3A420B",
":. c #3C4214",
">. c #3E4319",
",. c #3C402A",
"<. c #42420E",
"1. c #424416",
"2. c #454A14",
"3. c #42441C",
"4. c #4A441E",
"5. c #444A1B",
"6. c #4A4D1B",
"7. c #52521C",
"8. c #77411B",
"9. c #7C441B",
"0. c #444423",
"q. c #4B4424",
"w. c #464A21",
"e. c #4A4C23",
"r. c #46452B",
"t. c #4B4C2C",
"y. c #534A27",
"u. c #544D2C",
"i. c #4D5224",
"p. c #4E512A",
"a. c #54552D",
"s. c #565A29",
"d. c #474734",
"f. c #43423D",
"g. c #4C413D",
"h. c #554636",
"j. c #53423C",
"k. c #535432",
"l. c #595737",
"z. c #794928",
"x. c #6B4A38",
"c. c #69543A",
"v. c #785239",
"b. c #5B6131",
"n. c #6A6136",
"m. c #64673C",
"M. c #3D3D42",
"N. c #433E42",
"B. c #3E4144",
"V. c #434244",
"C. c #4B4543",
"Z. c #434549",
"A. c #4B4848",
"S. c #4B4C4C",
"D. c #524542",
"F. c #534B45",
"G. c #5A4B47",
"H. c #534D4B",
"J. c #4F514E",
"K. c #59544B",
"L. c #4D4E52",
"P. c #4D5256",
"I. c #545453",
"U. c #585857",
"Y. c #5B5D5C",
"T. c #685348",
"R. c #625C55",
"E. c #685955",
"W. c #655D5C",
"Q. c #5C6056",
"!. c #5B615F",
"~. c #686646",
"^. c #63655B",
"/. c #75665C",
"(. c #595D63",
"). c #655D60",
"_. c #5E6467",
"`. c #5D6A75",
"'. c #646364",
"]. c #6C6564",
"[. c #676768",
"{. c #64696C",
"}. c #6C6C6C",
"|. c #736B69",
" X c #6C716B",
".X c #76746B",
"XX c #666D72",
"oX c #696E73",
"OX c #706F71",
"+X c #6D7274",
"@X c #6E757C",
"#X c #737474",
"$X c #787978",
"%X c #7B7B7A",
"&X c #814418",
"*X c #85491D",
"=X c #8D4E1B",
"-X c #8B4C1D",
";X c #94531F",
":X c #894E23",
">X c #8C5427",
",X c #935525",
"<X c #965925",
"1X c #9B5A25",
"2X c #985A29",
"3X c #885B39",
"4X c #A15E27",
"5X c #8E613E",
"6X c #95633A",
"7X c #A5622C",
"8X c #815D41",
"9X c #946746",
"0X c #956F51",
"qX c #817873",
"wX c #7C8278",
"eX c #83827D",
"rX c #978578",
"tX c #6A7580",
"yX c #757C83",
"uX c #797E84",
"iX c #7B8286",
"pX c #7C838A",
"aX c #7E8A92",
"sX c #858889",
"dX c #8F8F88",
"fX c #888D93",
"gX c #8B9296",
"hX c #859099",
"jX c #8D959C",
"kX c #92979B",
"lX c #8D99A2",
"zX c #959CA2",
"xX c #99A2A9",
/* pixels */
"f > ; . . / u.u q.q.~.q.+ ^ y.w 2 ; 3 q.i w t.X.f f 0.a a e.5.;.;.7 ;.7 :.e.; ; 0.i 0.3.5.i.;.:.",
"u > f 3.> 1 q.u.k.0.l.u.^ ^ w + q.u.u d X.< < X.f f f 1 6 a.i.7 - 4 4 6.s.e.a 3 1 f e.6 4 :.2.2.",
"e.a 3.w.u u 0.3.0.3 u u i ^ i / 3 ~ > i q.3 i l.k.;   . ; : : : 5.i.p 3.a ; d r.+ , . . - 6 p : ",
"a > ; - > 3.e.u u d u ; w q.r.c.3 < u  .^ } Q S N e G r S d 5.>.i.b.s.l.p.u u w , u 8 f 1 . :.a.",
"3.5.>.5 > 6 3.f 6 a a 1 d m J e m r e E.*.dX&.].R.*.sX*.#XD.Q e e M 0.0.t.k.w 8 h.r.8 X.t.0.k.p.",
"k.a.a.a.3.5 6 w.u > < $.+.&.sXU +XY V.Y.F.!...F.A.o.!.E.I.].[.J.o.$XC.D v 8 < Z q d.t.d 1 u t.t.",
"7 4 7 5.i.>.:.i.w < $ OX].b  X..Y.K.#.U.^ _...F.R.| !.G.F.o.+X^.g.A.$X}.g.'.D q f X.f ; 1 t.e.p ",
":.e.e.5.w.w.5.t j.].n A.I.H.[.| [..XF.I.} P.r H.R.+.Y.A.C.}  X$.Y.#.D.Y.M $X@.E.m 9 f ; : 0.>.e.",
":.5.2.4 1.u.e N | '.U.o.(.g. .H.o.K.M I M U.D K C.n I U F.= H n I.o.#.U.$XY.o.U.A.$ G.a i.p : 5.",
"6.6.7 7 e.$.R.$XB D Y.R.C.@...R.{.'.Y c X * % % $ o X $ K z F.oXY.F.U.* '.D./.}.v '.I.Z i.3.4 1.",
"6.<.> <.Z t S.}.Y.B U f.L [.wXgXjX$XI v P x 9 , k y l 9 K & ].jXzXeX.XK.S.e ].I.e .XY.k d 7 4 5.",
"6.<.- 8 '.K.g. .L.I.b l.gXzXsXj.G.pXK G p.Z s s.P s.P 1 K & ].fX$.R.gXsX$XA.M.k K.I.v K.$.3 :.5.",
"<.2.7 # o.}.}.t k G ~.wX$Xr | ! z.fXV.c C S N P k L k x K & W.gX` ! Q +.sX$X$ f.%.z K.^.I.q >.: ",
"7 b.c.e L $ M.Y.S.n sX#XR R z.9.6XpXV.v 4 s Z :.S 4 A s G & ].gX,X-X[ # } sXK.0 } j..XY.P j 2 > ",
"7.n.j.Y.sXD.+.k t G.$X# -X{ ' <X6XiXM.v d.V V d.l d.k S c & W.kX>X8.4X8.O G.gXv Z.V.S b G.M w t.",
"s.y.} %.'.[.U.Y = }.D.` 2X] { ,X5XyXV.G p ,.P s v ,.x C K & ].fX>X9.2X1X' Q $XK c E.f.g.Q.D.^ p ",
"X.0 r % z o.K V.C ~.*.&X] { { >X3XiXM.l . z D @ S @ P Z F % ].gX,X*X1X<X4X) ).&.l U.I.V.K N i 7.",
"X.* D.'.$XE.b K J ).T *XW 8.] :Xv.iXV.G D.l l N X N o v Y z W.fX,X-X,X<X4X' '.@Xl m K K K N a 2.",
"q = U Z.B.B.Y.[.I |.# *X] 8.R z.3XyXI G |.D e 2 L @ N d K 0 ].zX<X' *X1X1X' ).oXc Y.}.OX'.D.~ 7.",
" .} U.&.D.R.n X L #X@ *X] { ] { z.yXM.c D.k k Y o %.o v c % ].kX2X8.' ,X4X' H.+Xo h z b l z 4.2.",
"T...C.#XsXOXV.& D oX$ *XW 8.] W v.pXY K /.C A u.L q.N Z K & W.kXz.] { ;X1X) K.@Xk '.$X.X.X'.#.b.",
"h.} e N L.I.U.z B uXC.z.x.O.M.M._.iXY K E.D P X.v X.v A K & W.jXM.Y j.v.9X-.A.@Xk I K V.V.U c 7.",
"q M B *..X$XsX| M zXkX`.aXXXfXyXjXsXV.v G.S S d.k #.l S F & ].gX@XiXaXtXlXyXI @Xg Y Y K K L M ~ ",
" .r L Z.M.Y Y N D sXD.x.x.T.x.=.T.pXY N /.Z Z y.P ; D 1 I & W.fXc.c.x.v.v.-.D oXc Y.V.U.^.U.N 1.",
"^ e e r 0 n = % B yXn ( _ E ( T z.yXI F o.l 9 L X Y o v F & ].sX` ) ) ) ) E B +Xo h b v v z & ; ",
"^ q &.!.Y.Y.Y.S.B iXB *X9.{ >XE 3X@XK v  .t.Z 7 K > C f K & ^.pX9.,X2X<X9.8.m {.l !.#XeXeXOX} 6 ",
"/ ^ j #.A.%.f.b D pXB *X] { 2XE v.iXK k m x S d.k C h k F & ].uX:X1X2X<X:X[ b XXk S.Z.Z.Z.V.t l.",
"u.Z K.].&..Xj.# o.iXe 9.{ >X2XR 3XiXI k e C d.r.x 9 k 9 K & W.sX1X1X2X1X*X[ z XXh & % * * b < u ",
"a. .F.wXeX#XI.S.L iXo.z.>X>X6X! 0XiXK G q Z r.a S , V 8 F & ].oX6X>X>X>Xz.8.z +Xl I.S.A.I.K.w t.",
"3.e D g.#.h #.N B kXkXP.+X(.xXP.jX@XI K o.x v f.o f.k S K & W.{.xXoX_.P.hXoXJ oXh N #.S.A.L * >.",
"~ q o.T.E.E.D.$ B fX].h.T.&.K.+.W.yXI v h.f s 7 K s.d.k.K & ].{.G.j.j.j./.T.x _.k @.K.|.].F.} p ",
"e.Q I.+X#X+X'.C.D @X* [ 8.E E T -.iXY v } k k C X P X x I & '.{.E E R ( *X` 0 XXx !.U.I.U.P.M w.",
"o.t x G K N.@.r B pXo.-X,X9.4XR 3XuXI c M 9 m i S t.C u K z ].I.,X1X` *X1X' 9 '.k o...o.o.} t 5 ",
"} $.% z $.qXsXj.D pXB *X2X,X4X! 3X@XI F o.D S Z k Z v r.K h W.S.<X-XE -X:X' w XXK eX$X$X$X.Xo.1 ",
"w o.A.'.I.V.Z.C.+.pXn &X1X1X1X! 5X@XF c } x x C 9 d.k A K z ].L.,X,XW -X<X' e {.k C.Z.L.U.U.K 3.",
"O.t z } M * = X D sX{.rX0X:X1XE 5X@Xc c ..Z Z a.f.m.P f F z |.L.;X4X` 3XrXeXA.Y.g o X k x 0 & p ",
"i D I.$X$XH.H.S.B gXzX(.gX$XsX$XI.oXz v n k k K X P o x K z ].S.K.eX$XsXjXiXf.(.k {.sXU.S.I.L 6 ",
"+ z %.S.I.V.%.C.B gX#XD.W.N I.(.lXoXc c q Z A 5 S : A y c h ].L.S.I (.N.|..XS.'.k &.C.g.#.L K 7 ",
"> = D.U.B &.W.K.L pXM ` _ ! Q M qX}.v F e x V A o C k V K h ].L.*.O.T ! 9.( b ].% = G.E.E.=.$ > ",
"7 N $XdXK.U.[.^.+.sXZ :X2X&X&XE 3X#Xz x e A P l.v r.S C I z ].L.-X=XE :X7X{ z W.k I.[.fX$X'.N a ",
"7 v U L K K L F B yXo.9.*X*X-XE 9X}.% G t ,.C 4 P 6 C s v z '.S.;X=XE &X,Xz.c ].k U G L N.Z.B a ",
"7 t } *.h.} j.o.B uXpXR...z.0Xx.8X[.% F q C y - K : S r.v & ].Z.9X9XO...h.kX{.].% } =.o.|.$XV.7 ",
":.K S.^.^.S.S.%.b xXzXjX X@XlXjX#X|.% c e C C : K - S 0.U & ].@XfXlX@X^..XjXxX$Xo Z.'.I.Z.A.K 1.",
"b.C g % h z g e E.$.*.$.|.gXfXgXkX].& G r >.p 4 Z > f 1 F % ].xXsXgXgXgX*.*.j.@.& g X o o o y 1.",
"a.0.1 / 1 + + c.q.4.3 i u.Q ^ ..j.W.b v t i.3.a q.a e.1 K z W.dX} } Q M f l.k./ 6 a > 4 ; 3.e.e.",
"0.t.6 f i 2 + y.~ 3 + ; 3.a 1 6 3 r = , 1.e.e.i.u.3 a a Z j.r  .0.l.r.k.t.l.e.6 > 6.6.s.5.m.m.~.",
"k.t.u ; + w i ^ u.^ 3 d q.e.a 1 3.6 a ; a a i 3.y.3 6 4.4.y.~ 4.. , 8 k.t.> ; ; 6 5.3.l.a 3.6 a ",
"s , . . . / c.q.q.q.k.y.i i a 0.w.a 5.> a 6 ; > / 4.u.a.a 4.3 2 , , . 8 r.> 6 - >.3.a m.3.3.> a "
};
