/* XPM */
static char *_fbc3e325f23407f9738aae00d0c5f03BjgpvEKlowXjkcGf[] = {
/* columns rows colors chars-per-pixel */
"48 48 64 1 ",
"  c #0E150B",
". c #171D0C",
"X c #1F1810",
"o c #291E14",
"O c #1C230F",
"+ c #20280B",
"@ c #262D0F",
"# c #2B330F",
"$ c #32380F",
"% c #232811",
"& c #2A2F12",
"* c #2C2915",
"= c #36241B",
"- c #3E2A1E",
"; c #2F3113",
": c #303715",
"> c #353C13",
", c #373814",
"< c #393F10",
"1 c #393D16",
"2 c #3E3D16",
"3 c #363019",
"4 c #44381F",
"5 c #4C3919",
"6 c #451926",
"7 c #58282C",
"8 c #463022",
"9 c #4F3426",
"0 c #583D2B",
"q c #3D4312",
"w c #3B4218",
"e c #424710",
"r c #434817",
"t c #474A14",
"y c #494E12",
"u c #4E4B16",
"i c #404418",
"p c #46491B",
"a c #494E19",
"s c #4E4F1D",
"d c #4D5115",
"f c #515314",
"g c #555815",
"h c #5A5B15",
"j c #55501B",
"k c #51561B",
"l c #595B1C",
"z c #66591F",
"x c #5F601A",
"c c #65651B",
"v c #6E6A1D",
"b c #79741F",
"n c #4E4320",
"m c #6C4E21",
"M c #684031",
"N c #6A4B34",
"B c #7F4839",
"V c #A77B5B",
"C c #9B8454",
"Z c #D4AD56",
"A c #D3A068",
"S c #DDBB71",
"D c #E4C88B",
"F c #F5F2E6",
/* pixels */
":&+O.,090NN0+-0====09-8043a#rfrq#i$>raO@<epiyy>a",
"<##$+qeuu0Nr#8==4n433-82w&@p+fl;+@:uty<#;,<>>rrw",
"t;ptq#rtp84@a344$:#t13$glO  .@@Otditd+$qXXo..$w&",
"2&% Oee:3;*X,djg#.qkw:tt;  $uu2uuvhhw#w;o8=#@O:z",
"n422&q<w,<>w%p&ai<thfwsc><#$hxvi*2kgak,=0N-,dpjs",
"nzzjw$<i&@:Oss=82hdhx::gkvbllwf%,dy@@&X9804q$:pp",
"2,;iyw:yt#i>w$-Nahh11.&;:p2fi%:%,xbh>#*9899.%drp",
"1apjjwky#fkw+ @*43&<,:i@#i@O. hh#w:wwqq38-8%@wsi",
"<uj%<f;1#aa:#q+@;:#@t<qe1ir$@2sge#%i<@yhrwq:a<@i",
"d23rfhO:>frkeq$e:wr#kg$<%idckmmm,1rt:>gmmmjtka@p",
"fi%2cpxxts$t<ebcrii;dla;evyimSSZmkfhqemSSZmdpi@i",
"y1*1y$svcjufyctplw2pudtlvhkmSF6SmwigamZF6Sml>:if",
"dr:;&@&j3nlhfi%.a,i2#;>1.OwmDBBDml:dqmSBBDma#1wO",
">svcp&pj,*,si11##@1p&&qq,&:mSDDDmaO@qmSDDmacl:&;",
"ybbz&fzizjhcxcgcl%icxadxgki2mZZm,w,*e>mmmi$dawii",
"xvb&#vclpudlp $gkdp::ldwi23>emSm#&p:,XmZm2a&+rww",
"0&<qvaqkpi>i&;6666666666:%2famSSm;2i9=mZm4syq::s",
"-*qep+eyujq:$6BBBBVVVV7B66:ihmSZms2s8mSSm3pcrdkn",
"-92%&$gktgxi6VVVBBBBBVV7BB6%umZSm;;p*mSmp@>>tikj",
"008-=zgd%tx6VAAVVBBBBBVV7BB6&mZSm5<qgmZm@$#<cxkj",
"M0808;<,+i6VAAAAVVBBBBBVV7BB6tmZSm555mZmalgfxlbN",
"M9-8*;ie;677777AAVVBBBBBVV7B6lmZSSZZZC5ma2l$;&4M",
"=993qulj6BBBBBB7AVVBBBBBVV7BB6mZSSSSZZC5mclfu2u8",
"88-22i26BVVVVBBB7AVBBBBBBVV7B6mZZZZZZZZCZ55duul4",
"8=4j;% 6VAAAVVBB7AVVBBBBBVV7BBmSZCCZZZZC5S5t$,,O",
"88$@,&6BA777AVVBB7AVBBBBBBV7BBmS5S5ZZZZZ55rj1;%>",
"94<%kp6A7AAV7VVBB7AVBBBBBBV7B75SS5ZZZZZZ5@... &0",
"Na.@@X6V7AVB7VVBB7AVBBBBBBV7BB5SSSZZZZZS5<y1#+O0",
"ixr*;;6V7VBB7VVBB7AVBBBBBBV7B6ZSSSSZZZZSmhfwyd1n",
"aqgbzj6V7VB7VVVBB7VVBBBBBVA7B6ZSSSSZZZZSmkwrxy&w",
">r$%X;6VV77VAVBBB7VVBBBBBVA76CZSSSSSZZZSSm<i%.#>",
"p:o=oy6VAVVAVVBBB7VVBBBBBVA76CZSSSSSSZZZSms%  wa",
"w-908=6BVAAVVBBBB7VBBBBBVVA6CCZSSSSSZZZSSSm#.@#O",
"38900867BVVVBBBB7VVBBBBBVVA6CZSSSSSSZZZSSSmk<pk>",
"-909906V7BBBBBBB7VBBBBBBVA6CCZSSSZSSZZZSSSmyerw$",
",k,=-06VV7BBBBB7VVBBBBBVVA6CZSSSZZZSSZZSSSmydr>i",
"1qe**4<6VV77777VVBBBBBBVA6CCZSSZZZZSSZZZSS5tta.1",
"OOs1$+O6BVVVVVVVBBBBBBVVA6CZSSZZZZSSSZZZSS5xw>:1",
"%#>kvcp@6BVVVVVBBBBBBVVA6CCZSZZZZSSSSCCCZS5ixci%",
"1>hbvs%ux6BBBBBBBBBBVVAA6CZSZZZZZSCCCCCCC5a@apwi",
":rccvO@vl6VBBBBBBBBVVAA6CCZZZZZZSCCCCCCCC5gd:O:i",
":i;&1<v55Z6VBBBBBVVVAA6CCZZZZZCCCCCCCCCC5akliq:&",
"w,t<ee5ZZZZ6VVVVVAAA66CCZZZCCCCCCCCCCCC5kr:>xiqr",
"cuug<5555555666666665555555555555555555#kl:>w1rw",
"ap+q...bdt%;c>ictap#sk1iuis;-8=-88o1ihcq1:@>%rls",
"kae$<;Xn2,oOa<%+>O&@>kpsu*3394nn0Nxgfxt:@tkdpbcb",
"pp&+O3-903=4iu1#w$#@<<>2j;,s4gwiO :il*OO&kwlr::i",
":;  .4MMM0Nn>34np>i333o-n2fgwr:&.+O&i%@+,tplrr#:"
};
