/* XPM */
static char * Grassaab_xpm[] = {
"48 48 66 1",
" 	c #303715",
".	c #2A2F12",
"+	c #20280B",
"@	c #1C230F",
"#	c #171D0C",
"$	c #373814",
"%	c #583D2B",
"&	c #4F3426",
"*	c #6A4B34",
"=	c #3E2A1E",
"-	c #36241B",
";	c #463022",
">	c #44381F",
",	c #363019",
"'	c #494E19",
")	c #2B330F",
"!	c #434817",
"~	c #515314",
"{	c #3D4312",
"]	c #404418",
"^	c #32380F",
"/	c #353C13",
"(	c #262D0F",
"_	c #393F10",
":	c #424710",
"<	c #46491B",
"[	c #494E12",
"}	c #4E4B16",
"|	c #4E4320",
"1	c #3E3D16",
"2	c #3B4218",
"3	c #595B1C",
"4	c #2F3113",
"5	c #474A14",
"6	c #393D16",
"7	c #555815",
"8	c #0E150B",
"9	c #4D5115",
"0	c #1F1810",
"a	c #291E14",
"b	c #232811",
"c	c #2C2915",
"d	c #55501B",
"e	c #51561B",
"f	c #6E6A1D",
"g	c #5A5B15",
"h	c #66591F",
"i	c #4E4F1D",
"j	c #65651B",
"k	c #5F601A",
"l	c #79741F",
"m	c #522626",
"n	c #B66262",
"o	c #B05454",
"p	c #F5F2E6",
"q	c #3C1C1C",
"r	c #BC6F6F",
"s	c #80493A",
"t	c #16181A",
"u	c #2D2F35",
"v	c #464A52",
"w	c #26292E",
"x	c #595F6A",
"y	c #843D3D",
"z	c #684031",
"A	c #873F3F",
" .+@#$%&%**%+=%----%&=;%>,')!~!{)]^/!'@(_:<][[/'",
"_))^+{:}}%*!);-->|>,,=;12.(<+~34+( }5[_)4$_//!!2",
"54<5{)!5<;>(',>>^ )56,^73@88#((@59]59+^{00a##^2.",
"1.b8@:: ,4c0$9d7)#{e2 55488^}}1}}fgg2)24a;-)(@ h",
"|>11.{_2$_/2b<.']_5g~2ij/_)^gkf]c1e7'e$-%*=$9<di",
"|hhd2^_].( @ii-;1g9gk  7efl332~b$9[((.0&;%>{^ <<",
"1$4][2 [5)]/2^=*'gg66#.4 <1~]b b$klg/)c&;&&#b9!<",
"6'<dd2e[)~e2+8(c>,._$ ]()](@#mmm)2 22{{mmm;b(2i]",
"_}db_~46)'' ){+(4 )(5_{:6]!^mnnom)b]_(mnnom '_(]",
"91,!~g@ /~!e:{^: 2!)e7^_b]9mnpqnm6!5 mopqnm5e'(<",
"~]b1j<kk5i^5_:lj!]]493'4:f[mrssrme~g{mnssrm9<](]",
"[6c6[^ifjd}~[j5<321<}953fgemnrrrm2]7'mnrrm93/ ]~",
"9! 4.(.d,|3g~]b#'$]1)4/6#@2.moomf3 9{)mmmf[')62@",
"/ifj<.<d$c$i]66))(6<..{{$. 64mnme'@({~mom7'j3 .4",
"[llh.~h]hdgjkjtttttttttt7e]16mnnm2$c:/mom]^9'2]]",
"kfl.)fj3<}93<tuuuuvvvvtwtt,/:mnom.< $mnnm1'.+!22",
"%._{f'{e<]/]tvvvuuuuuvvtwwt~'monm41]&mnma>i[{  i",
"=c{:<+:[}d{tvxxvvuuuuuvvtwwtgmonmq1i;mom;,<j!9e|",
"=&1b.^7e57tvxxxxvvuuuuuvvtwwt5monmqqqmom<(//5]ed",
"%%;=-h79bttttttxxvvuuuuuvvtwt@monnoooyqm(^)_jked",
"z%;%;4_$tuuuuuutxvvuuuuuvvtwwtmonnnnooyqm37~k3l*",
"z&=;c4]tuvvvvuuutxvuuuuuuvvtwtmooooooooyoqq^4.>z",
"-&&,{}3tvxxxvvuutxvvuuuuuvvtwwmnoyyooooyqnq~}1};",
";;=11]tuxtttxvvuutxvuuuuuuvtwwmnqnqoooooqq{9}}3>",
";->d4btxtxxvtvvuutxvuuuuuuvtwwqnnqooooooq(:5^$$@",
";;^($.tvtxvutvvuutxvuuuuuuvtwwqnnnooooonq)!d64b/",
"&>_be<tvtvuutvvuutxvuuuuuuvtwtonnnnoooonm(###8.%",
"*'#((0tvtvutvvvuutvvuuuuuvxtwtonnnnoooonm_[6)+@%",
"]k!c44tvvttvxvuuutvvuuuuuvxttAonnnnnooonnm~2[96|",
"'{7lhdtvxvvxvvuuutvvuuuuuvxttAonnnnnnooonm2!k[.2",
"/!^b04tuvxxvvuuuutvuuuuuvvxtAAonnnnnooonnnm]b#)/",
"< a-a[ttuvvvuuuutvvuuuuuvvxtAonnnnnnooonnnmb882'",
"2=&%;-tvtuuuuuuutvuuuuuuvxtAAonnnonnooonnnm)#()@",
",;&%%;tvvtuuuuutvvuuuuuvvxtAonnnooonnoonnnme_<e/",
"=&%&&%|tvvtttttvvuuuuuuvxtAAonnoooonnooonnq[:!2^",
"$e$-=%|tuvvvvvvvuuuuuuvvxtAonnoooonnnooonnq[9!/]",
"6{:cc>_+tuvvvvvuuuuuuvvxtAAonoooonnnnAAAonq55'#6",
"@@i6^+@#@tuuuuuuuuuuvvxxtAonooooonAAAAAAAqjk2/ 6",
"b)/efj<(6tvuuuuuuuuvvxxtAAoooooonAAAAAAAAq7]kj]b",
"6/glfibqqotvuuuuuvvvxxtAAoooooAAAAAAAAAAqe'('<2]",
" !jjf@qooootvvvvvxxxttAAoooAAAAAAAAAAAAqj<79 @ ]",
" ]4.6qqqqqqqttttttttqqqqqqqqqqqqqqqqqqq7e'e3]{ .",
"2$5_::'#/::5_(b('9^6...(6@^'d3{_^.9^e@@.e! /k]{!",
"j}}7_b.@:5/[7]29<e66]i6b2()b5|].aa46'@+)e3 /26!2",
"'<+{###l95b4j/]j5'<)ie6]}]i4=;-=;;a6]gj{6 (/b!3i",
"e':^_40|1$a@'_b+/@.(/e<i}c,,&>||%*k7~k5 (5e9<ljl",
"<<.+@,=&%,->]}6)2^)(__/1d4$i>72]@8 ]3c@@.e23!  ]",
" 488#>zzz%*|/,>|</],,,a=|1~72! .#+@.]b(+$5<3!!) "};
