/* XPM */
static char *_c39530ef6e24677ba536c957e7bb6a9zQPpLcJsV9J5FbrX[] = {
/* columns rows colors chars-per-pixel */
"48 48 214 2 ",
"   c #030101",
".  c #0B0504",
"X  c #080705",
"o  c #0D0A05",
"O  c #070709",
"+  c #0D0B0A",
"@  c #160703",
"#  c #120E03",
"$  c #120D0C",
"%  c #0F1100",
"&  c #151402",
"*  c #1A1604",
"=  c #171A02",
"-  c #1C1C02",
";  c #15120C",
":  c #19130C",
">  c #1C1A0B",
",  c #100E12",
"<  c #0F1215",
"1  c #141313",
"2  c #1A1614",
"3  c #1C1A16",
"4  c #181718",
"5  c #1C1B1B",
"6  c #210C05",
"7  c #271504",
"8  c #221C01",
"9  c #221F0E",
"0  c #361B09",
"q  c #201410",
"w  c #211D12",
"e  c #211D1C",
"r  c #311E13",
"t  c #1E2300",
"y  c #1E220E",
"u  c #242302",
"i  c #2A2501",
"p  c #242A01",
"a  c #2A2B04",
"s  c #23230D",
"d  c #2C270D",
"f  c #2C2D09",
"g  c #312D04",
"h  c #3D200C",
"j  c #332D0B",
"k  c #2D3405",
"l  c #2F320A",
"z  c #343703",
"x  c #323704",
"c  c #3A3B07",
"v  c #33330C",
"b  c #353B0D",
"n  c #3A3E0B",
"m  c #242313",
"M  c #292512",
"N  c #2D2B12",
"B  c #22201D",
"V  c #2B261F",
"C  c #2C2B1C",
"Z  c #352D13",
"A  c #372916",
"S  c #2E3012",
"D  c #353313",
"F  c #3A3514",
"G  c #363C13",
"H  c #3B3B14",
"J  c #353319",
"K  c #3A361A",
"L  c #3C3B1A",
"P  c #242322",
"I  c #292625",
"U  c #2B2925",
"Y  c #2C2C2B",
"T  c #322B22",
"R  c #312E2B",
"E  c #34322D",
"W  c #3D3C2A",
"Q  c #2F3030",
"!  c #333333",
"~  c #353637",
"^  c #393534",
"/  c #3A3A35",
"(  c #3C3C3B",
")  c #4C2710",
"_  c #532C13",
"`  c #413B15",
"'  c #41341B",
"]  c #443C1C",
"[  c #4C3919",
"{  c #6D3F18",
"}  c #451926",
"|  c #471F2A",
" . c #58282C",
".. c #483525",
"X. c #433D23",
"o. c #4A302E",
"O. c #413E3C",
"+. c #364003",
"@. c #3B430D",
"#. c #3C4214",
"$. c #3F4811",
"%. c #3D431C",
"&. c #3F403C",
"*. c #43420D",
"=. c #424315",
"-. c #434A15",
";. c #4A4A14",
":. c #42441C",
">. c #4A451E",
",. c #454B1B",
"<. c #4A4D1B",
"1. c #524E1A",
"2. c #52561D",
"3. c #70411C",
"4. c #444422",
"5. c #4B4324",
"6. c #464A21",
"7. c #4A4C23",
"8. c #45442B",
"9. c #4C462B",
"0. c #464C2A",
"q. c #4B4B2C",
"w. c #524C26",
"e. c #51452A",
"r. c #544D2C",
"t. c #4D5325",
"y. c #4E512B",
"u. c #595926",
"i. c #53552D",
"p. c #545A2D",
"a. c #494A32",
"s. c #41413E",
"d. c #544B33",
"f. c #535333",
"g. c #595334",
"h. c #5A5C34",
"j. c #575838",
"k. c #6C4E21",
"l. c #654D31",
"z. c #774E38",
"x. c #7F4839",
"c. c #765438",
"v. c #5D6433",
"b. c #62602F",
"n. c #65683C",
"m. c #3D3D40",
"M. c #3D4145",
"N. c #444442",
"B. c #4A4544",
"V. c #4C4A46",
"C. c #454649",
"Z. c #4C4C4B",
"A. c #5E4B47",
"S. c #4E504E",
"D. c #52524D",
"F. c #545453",
"G. c #565756",
"H. c #595855",
"J. c #5C5D5D",
"K. c #644D49",
"L. c #635743",
"P. c #64594D",
"I. c #755A46",
"U. c #614E51",
"Y. c #655B59",
"T. c #705B5B",
"R. c #6C6945",
"E. c #79644C",
"W. c #62645D",
"Q. c #6A635C",
"!. c #656958",
"~. c #7D6A56",
"^. c #776758",
"/. c #6D5E61",
"(. c #5C646A",
"). c #646465",
"_. c #676967",
"`. c #646669",
"'. c #6B6A69",
"]. c #736365",
"[. c #746969",
"{. c #6E7069",
"}. c #78756E",
"|. c #6B6D71",
" X c #6F7174",
".X c #687078",
"XX c #717274",
"oX c #7C7375",
"OX c #7B7A73",
"+X c #727579",
"@X c #777A7B",
"#X c #895334",
"$X c #946344",
"%X c #836C5A",
"&X c #A77B5B",
"*X c #867768",
"=X c #867769",
"-X c #807A75",
";X c #8C7F74",
":X c #837C7E",
">X c #9B8454",
",X c #8D8177",
"<X c #90847A",
"1X c #D4AD56",
"2X c #D4AD5B",
"3X c #D3A068",
"4X c #DDBB71",
"5X c #787C81",
"6X c #7D8285",
"7X c #868786",
"8X c #81868A",
"9X c #8F9499",
"0X c #E4C88B",
"qX c #F5F2E6",
/* pixels */
"L a u - - ] r.D 9.9.R.5.7 ' e.Z g u j 5.K Z q.X.L L 4.H G 7.,.@.+.z $.z #.6.i i 4.F 4.:.,.t.@.$.",
"D a L :.a f 9.r.g.4.g.d.' ' Z 8 5.r.D K X.d d X.L L L f v i.t.x t k z <.p.7.G j f L 7.v k -.-.-.",
"6.G :.6.D D 4.:.4.j D D F L F ] v ` a F 5.j F j.f.u o = u p p p ,.t.G :.L u K 8.8 s = = t v G p ",
"H a u t a :.7.D D K D u Z 9.9.L.j i F g.X.j 9.r.H = % H t.,.,.-.t.v.p.h.y.D J J s J N L f = #.p.",
":.,.%.l a v :.L v H F f J m > m B.V E ( 2 I ; 5 5 + / Z.3 e V.V.= > m m 8.g.J M d.8.N X.q.4.f.y.",
"p.i.i.i.:.l v 6.D a - & V N.B.1 Z.U ! N.e ( 2 U Y 1 N.G.I P Z.F.I 5 ~ B.> J d W Z a.q.K f J 0.0.",
"b k b ,.t.#.#.6.S o E G.R ^ Z.$ ! 5 5 Y 1 ~ 2 U U R F.Y I 1 Z.N.^ U N.).e o # N K X.L u f q.0.G ",
"#.7.7.,.6.6.L ; E O.w &.P 5 ! + N.O.5 ! o 4 $ U I 2 ( ! P 2 ( 5 ~ Z.3 ^ U V.e O ; N L u p 4.%.0.",
"@.,.-.a =.:.3 2 Z.! 5 P ^ Y U $ Y P 5 I 1 U 2 , o   + 1 4 2 U $ I Y 2 E H.( P ^ ! X u f t.b p ,.",
"<.<.n x L U G.2 . R ~ P ( 3 . X . +                     D.E.E.E.'.P 1 $ D.B Q E.E.E.Z.s t.:.k -.",
"<.*.a v ; R ! ~ 3 $ ! ! 3 O       + ; + + + $ + . $ . N.=X4X4X1X=X    1 E U E.4X4X1X~.& G x k ,.",
"<.*.- # ( I . P ! 1 + +     m Y C.D.0.W.`.).J.G.( `.`.=X4XqX} 4X=X3 ;     =X1XqX} 4X~.; ; a #.,.",
"*.;.g . O.N.5 + + $     m / W 6X9X7X_.G.G.`.@X@XG.6X5X=X0Xx.x.0X;X{.a.E . k.4Xx.x.0X=X( U > H p ",
"c u.4.R + 3 Y ! 1     2 V.}.@XS.C.M.P @ . ^ @X|.C.+Xm.;X4X0X0X0X<XF.6X!.8.k.4X0X0Xc.OX~ ( > k a ",
"1.L Y ( s.e + 5 1   4 J.6XD.U 7 @ 6 6 ) 0 A.+X`.N.8X( F.E.1X1XE.. $ ! |.!.8.~.k.E.J.Y 1 $ o y 0.",
"u.M 1 U S.N.U +   O Z.8XG.$ 7 { { ) _ 3.0 I.XX`.N.+X~ . I.k.4XI.^.@ 7 3  X X~.1XE.$ + &.s.5 3 G ",
"X.: . O 3 5 U P   U 8X(.r Q.U.T.[.].].].].[.[.:XG. X~ . z.k.4X4Xk.'.) r M.9X~.1XE.P s.Q./ O = 2.",
"X.: N.^ 1 I ;     C.9XC.P.} x.x.x.x.&X&X&X&X .x.| [.M.  l.k.4X1Xk.{.{ 7 < %X4X4XE.. X   . $ - -.",
"A o Z.F.~ Z.I $ $ J..XY.].&X&X&Xx.x.x.x.x.&X&X .x.#XoX$ z.k.1X4Xk.7X#X0 2 %X4Xk.N.e e ^ V.Y s 2.",
"..X + $ 5 e I $ 5 +X(./.&X3X3X&X&Xx.x.x.x.x.&X&X .x.x.A.%Xk.1X4Xk.[ $Xh 6 ~.1Xk.  2 2 Y s.5 s ;.",
"L.o I Y ( D.D.  3 7XU.&X3X3X3X3X&X&Xx.x.x.x.x.&X&X .x.x.} #Xk.1X4Xk.P.P.P.k.1Xk.  + + U Y.O.w b.",
"e.o 5 P P I I   F.}  . . . . .3X3X&X&Xx.x.x.x.x.&X&X .x.} K.k.1X4X4X1X1X1X>X[ k.  P P ( V.P $ 1.",
"A o 5 P e 5 5 ! } x.x.x.x.x.x. .3X&X&Xx.x.x.x.x.&X&X .x.#X} k.1X4X4X4X4X1X1X>X[ ;XX X $ O.s.> ` ",
"..+ P ~ ~ Y Q ].x.&X&X&X&Xx.x.x. .3X&Xx.x.x.x.x.x.&X&X .x.} k.1X1X1X1X1X1X1X1X>X1XP.-XV.}.N.. =.",
"' $ + e 5 e Z.T.&X3X3X3X&X&Xx.x. .3X&X&Xx.x.x.x.x.&X&X .x.x.k.4X1X>X>X1X1X1X1X>X[ 4X}.2 3 + . u ",
"' . ! ).XX7X} x.3X . . .3X&X&Xx.x. .3X&Xx.x.x.x.x.x.&X .x.x.k.4X[ 4X[ 1X1X1X1X1Xe.Q.( $ 1 ; & v ",
"] + 3 3 N.'.} 3X .3X3X&X .&X&Xx.x. .3X&Xx.x.x.x.x.x.&X .x. .[ 4X4X[ 1X1X1X1X1X1X-X~ N.! ! 5 * h.",
"r.:   O 1 ( } &X .3X&Xx. .&X&Xx.x. .3X&Xx.x.x.x.x.x.&X .x.x.[ 4X4X4X1X1X1X1X1X4X-Xe e P e + # D ",
"i.B E Y I Z.} &X .&Xx.x. .&X&Xx.x. .3X&Xx.x.x.x.x.x.&X .x.} 1X4X4X4X4X1X1X1X1X4X,XZ.F.D.G.Z.> 0.",
":.1 Y ! Y Z.} &X .&Xx. .&X&X&Xx.x. .&X&Xx.x.x.x.x.&X3X .x.} 1X4X4X4X4X1X1X1X1X4X,Xe Y Y ^ P m %.",
"` .       ( } &X&X . .&X3X&Xx.x.x. .&X&Xx.x.x.x.x.&X3X .} >X1X4X4X4X4X4X1X1X1X4X4X<XE I Y U U G ",
"7.O I D.( N.} &X3X&X&X3X&X&Xx.x.x. .&X&Xx.x.x.x.x.&X3X .} >X1X4X4X4X4X4X4X1X1X1X4X;XOXG.N.^ E 6.",
"..+ Y B.Y ( } x.&X3X3X&X&Xx.x.x.x. .&Xx.x.x.x.x.&X&X3X} >X>X1X4X4X4X4X4X1X1X1X4X4X4Xk.3 1 + > l ",
"' q 5 U 5 ( }  .x.&X&X&Xx.x.x.x. .&X&Xx.x.x.x.x.&X&X3X} >X1X4X4X4X4X4X4X1X1X1X4X4X4Xk.3 $ $ w f ",
"A 2 G.'.Z.Z.} &X .x.x.x.x.x.x.x. .&Xx.x.x.x.x.x.&X3X} >X>X1X4X4X4X1X4X4X1X1X1X4X4X4Xk.N.N.! e :.",
"..X 1 2 3 ( /.&X&X .x.x.x.x.x. .&X&Xx.x.x.x.x.&X&X3X} >X1X4X4X4X1X1X1X4X4X1X1X4X4X4Xk.E ^ 5 + G ",
"F $ $ X 2 s.V.oX&X&X . . . . .&X&Xx.x.x.x.x.x.&X3X} >X>X1X4X4X1X1X1X1X4X4X1X1X1X4X4X[ I Z.V.1 v ",
"8 2 U Y ( Z.N.oXx.&X&X&X&X&X&X&Xx.x.x.x.x.x.&X&X3X} >X1X4X4X1X1X1X1X4X4X4X1X1X1X4X4X[ J.V.s.5 b ",
"a O X 2 5 2 O F.} x.&X&X&X&X&Xx.x.x.x.x.x.&X&X3X} >X>X1X4X1X1X1X1X4X4X4X4X>X>X>X1X4XP.3     O a ",
"c + U ( 5 3 5 1   U.x.x.x.x.x.x.x.x.x.x.&X&X3X3X} >X1X4X1X1X1X1X1X4X>X>X>X>X>X>X>X[ 3 3 e 5 1 H ",
"c 5 ( N.! ! ! 1 . o.&Xx.x.x.x.x.x.x.x.&X&X3X3X} >X>X1X1X1X1X1X1X4X>X>X>X>X>X>X>X>XP.! ! ~ ^ 2 H ",
"n 1 B 2 3 e ~ ].[ 1X} &Xx.x.x.x.x.&X&X&X3X3X} >X>X1X1X1X1X1X>X>X>X>X>X>X>X>X>X>XQ.1 e 2 2 3 o n ",
"#.N._.Z.F.W.L.2X1X1X1X} &X&X&X&X&X3X3X3X} } >X>X1X1X1X>X>X>X>X>X>X>X>X>X>X>X>X[ J.( W.Z.N.F.5 =.",
"v.1 e e e OXP.P.P.P.P.P.U.U.U.U.U.U.U.U.P.P.P.P.P.P.P.P.P.P.P.P.P.P.P.P.P.P.P.G.3 3 5 5 P 3 . =.",
"i.w V m * # V C 9 M * > M s s C M s s > M M s 9 M > m * * * > * > w > > 9 C C s * o ; $   3 T 7.",
"4.0.v L F g 8 w.` j 8 i :.L f v k p p t :.7.6.y.r.j G G H H ` 7.8.j.q.j.q.h.6.v a <.<.p.,.n.R.R.",
"f.a.D u 8 Z F ' r.' j K 5.7.H f :.v H u L L F :.w.g v >.>.w.] >.- s N j.q.a u u v ,.:.h.H :.v G ",
"J u - * * ] g.5.9.5.g.e.F F H 4.6.G ,.a L v u a ] >.r.i.H >.j g s s - N 8.a v t #.:.H n.:.:.a H "
};
