/* XPM */
static char *_f856761e1e04fb8ef7b03a28f4f2795VdxjJj0CkSNd98gT[] = {
/* columns rows colors chars-per-pixel */
"48 48 52 1 ",
"  c #262D0F",
". c #2A2F12",
"X c #393D16",
"o c #1C230F",
"O c #353C13",
"+ c #2B330F",
"@ c #3B4218",
"# c #32380F",
"$ c #303715",
"% c #404418",
"& c #393F10",
"* c #3D4312",
"= c #232811",
"- c #474A14",
"; c #555815",
": c #46491B",
"> c #434817",
", c #2F3113",
"< c #424710",
"1 c #51561B",
"2 c #515314",
"3 c #373814",
"4 c #3E3D16",
"5 c #494E19",
"6 c #494E12",
"7 c #5A5B15",
"8 c #5F601A",
"9 c #171D0C",
"0 c #4D5115",
"q c #20280B",
"w c #4E4B16",
"e c #65651B",
"r c #583D2B",
"t c #595B1C",
"y c #463022",
"u c #4E4F1D",
"i c #3E2A1E",
"p c #36241B",
"a c #4F3426",
"s c #363019",
"d c #0E150B",
"f c #6E6A1D",
"g c #2C2915",
"h c #44381F",
"j c #55501B",
"k c #291E14",
"l c #4E4320",
"z c #79741F",
"x c #1F1810",
"c c #6A4B34",
"v c #66591F",
"b c #684031",
/* pixels */
"$.qo93rarccrqirppppraiyrhs5+>2>*+%#O>5o &<:%66O5",
"&++#q*<wwrc>+ypphlhssiy4@. :q2t,q $w-6&+,3&OO>>@",
"-,:-*+>-:yh 5shh#$+-Xs#;todd9  o-0%-0q#*xxk99#@.",
"4.=do<<$s,gx30j;+9*1@$--,dd#ww4wwf77@+@,kyp+ o$v",
"lh44.*&@3&O@=:.5%&-72@ueO&+#78f%g41;513prci30:ju",
"lvvj@#&%. $ouupy47078$$;1fztt@2=306  .xayrh*#$::",
"43,%6@$6-+%O@#ic577XX9.,$:42%=$=38z7O+gayaa9=0>:",
"X5:jj@16+21@qd ghs.&3$% +% o9d77+@$@@**syiy= @u%",
"&wj=&2,X+55$+*q ,$+ -&*<X%># 4u;<+=%& 67>@*$5& %",
"04s>27o$O2>1<*#<$@>+1;#&=%0e1vvv3X>-$O;vvvj-15 :",
"2%=4e:88-u#-&<ze>%%,0t5,<f6%vzzzv127*<vzzzv0:% %",
"6XgX6#ufejw26e-:t@4:w0-tf71vzzizv@%;5vzzizvtO$%2",
"0>$,. .jslt72%=953%4+,OX9o@vzcczvt$0*vzcczv5+X@o",
"Oufe:.:j3g3u%XX++ X:..**3.$vzzzzv5o *vzzzv5et$.,",
"6zzv.2v%vj7e8e;et=%e8508;1%4vzzv3@3g<Ovvv%#05@%%",
"8fz.+fet:w0t:d#;10:$$t0@%4sO<vzv+.:$3xvzv45.q>@@",
"r.&*f5*1:%O%.,iiiiiiiiii$=425vzzv,4%apvzvhu6*$$u",
"ig*<:q<6wj*$#icccczzzzacii$%7vzzvu4uyvzzvs:e>01l",
"ia4=.#;1-;8%izzzccccczzacci=wvzzv,,:gvzv: OO-%1j",
"rryipv;0=-8izzzzzccccczzacci.vzzvh&*;vzv #+&e81j",
"bryry,&3q%izzzzzzzccccczzacci-vzzvhhhvzv5t;28tzc",
"baiyg,%<,iaaaaazzzzccccczzacitvzzzzzzzhv54t#,.hb",
"paas*wtjiccccccazzzccccczzaccivzzzzzzzzhvet2w4wy",
"yyi44%4iczzzzcccazzcccccczzacivzzzzzzzzzzhh0wwth",
"yphj,=dizzzzzzccazzzccccczzaccvzzzzzzzzzhzh-#33o",
"yy# 3.iczaaazzzccazzcccccczaccvzhzhzzzzzhh>jX,=O",
"ah&=1:izazzzazzccazzcccccczacahzzhzzzzzzh 999d.r",
"c59  xizazzcazzccazzcccccczacchzzzzzzzzzh&6X+qor",
"%8>g,,izazccazzccazzcccccczacizzzzzzzzzzv72@60Xl",
"5*;zvjizazcazzzccazzccccczzacizzzzzzzzzzv1@>86.@",
"O>#=x,izzaazzzcccazzccccczzaizzzzzzzzzzzzv&%=9+O",
":$kpk6izzzzzzzcccazzccccczzaizzzzzzzzzzzzvu=dd@5",
"@iarypiczzzzzccccazccccczzzizzzzzzzzzzzzzzv+9 +o",
"syarryiaczzzccccazzccccczzzizzzzzzzzzzzzzzv1&:1O",
"iaraarizacccccccazcccccczzizzzzzzzzzzzzzzzv6<>@#",
"313pirizzacccccazzccccczzzizzzzzzzzzzzzzzzv60>O%",
"X*<ggh&izzaaaaazzcccccczzizzzzzzzzzzzzzzzzh--59X",
"oouX#qoiczzzzzzzcccccczzzizzzzzzzzzzzzzzzzh8@O$X",
"=+O1fe: iczzzzzcccccczzzizzzzzzzzzzzzzzzzzh%8e%=",
"XO7zfu=w8icccccccccczzzzizzzzzzzzzzzzzzzzh5 5:@%",
"$>eefo ftizcccccccczzzzizzzzzzzzzzzzzzzzzh;0$o$%",
"$%,.X&fhhzizccccczzzzzizzzzzzzzzzzzzzzzzh51t%*$.",
"@3-&<<hzzzzizzzzzzzziizzzzzzzzzzzzzzzzzh1>$O8%*>",
"eww;&hhhhhhhiiiiiiiihhhhhhhhhhhhhhhhhhh+1t$O@X>@",
"5:q*999z0-=,eO%e-5:+u1X%w%u,iypiyykX%7e*X$ O=>tu",
"15<#&,xl43ko5&=qOo. O1:uwgssahllrc8;28-$ -10:zez",
"::.qosiarsph%wX+@#+ &&O4j,3uh;@%od$%tgoo.1@t>$$%",
"$,dd9hbbbrclOshl:O%ssskil42;@>$.9qo.%= q3-:t>>+$"
};
