/* XPM */
static char *c0b371d0b0df478bc207b12e0fe7764eNP2CFLW2nTst84Hd[] = {
/* columns rows colors chars-per-pixel */
"48 48 49 1 ",
"  c #725948",
". c #503C32",
"X c #705542",
"o c #5E473A",
"O c #6A5445",
"+ c #654D3F",
"@ c #4B362D",
"# c None",
"$ c #695141",
"% c #4E382E",
"& c #554136",
"* c #46332B",
"= c #775D4C",
"- c #61493B",
"; c #5D4333",
": c #594539",
"> c #725C4D",
", c #563D31",
"< c #684D3C",
"1 c #7B614F",
"2 c #654B3A",
"3 c #604635",
"4 c #5D493D",
"5 c #644F43",
"6 c #6D503D",
"7 c #594236",
"8 c #6D5646",
"9 c #594031",
"0 c #412F28",
"q c #826958",
"w c #785B47",
"e c #6E594C",
"r c #806552",
"t c #533B2E",
"y c #8B7260",
"u c #7D5D47",
"i c #785842",
"p c #664836",
"a c #73533E",
"s c #776152",
"d c #89664D",
"f c #826148",
"g c #846D5C",
"h c #896C59",
"j c #7B573D",
"k c #7C6555",
"l c #927865",
"z c #937053",
"x c #A08672",
/* pixels */
"##58e85#::+$OO8 4Oxxy8;;$o0@93X<3pawwuwX<<6<@###",
"##O8O:.:445OO>s>&#xlq8+-O-*9<Xww6aaXwuww  Xo*5OO",
".&44.%@****..7#:@7qq1> O>9*,o;-a66226wrrqr$%05#:",
"**@&&qy= -@%9;6pttto+----tt@**@t,t*@@7-#O +9@7#:",
"%*4ekxxlyl-@@5uffuudr3,Xu6ipt6iiw626%t7+kyy=8sgg",
"4%egyllq1lq,.8ufzzzhzX;uipif<wui2pp697o#>qyrs==q",
"eeeskkq1=g1%,wuufddffw.Xi<3p<wi6;332t.&:81hh1=8k",
">>eee1hrw11%<ddfuffuX-@6uip;933;99;<@@.7Oqyh11kq",
"es>>>rhq=1$@wdzdddff;t*Xfuap9t%t932i9%.: ylhrqgg",
"eks>=qhhr=o0ifdzzddf,*0.iffip99;336d7.&o=ylhrqgg",
"&8O8>kqr88+*auiffaw<t@00.$26<---o72 @.:o rhksss>",
"*@...:o,@,,*;3;<3t%%ttt%.,,-37Oo%@*%**%.ooo:44:&",
"o%.:-2<t72p@% w 62<2p;,$= 2Xdhy=<$%,*@$X$XuX->e>",
"5&-#5$=-<Xw%;XX6p;;;pX9XX2;21yy Xh ;@7<$X=hX.O>s",
"5@o::7+X<2X,3p6<p;993p9ww<9;<=q 1yy1,73X1wrw@:O>",
">.#o793$2-$7paaa6p33p;9wu<t,3$  =r1=t,;2Xurw&&&#",
"=7#o7973;-O+<ddfi6p3p32hdX9;3281= 81..;3<Xu-:7%:",
" :4:::o-3O>>-uddfu6<p<;wdw2<< rh18+>4@7326wt.54+",
"7*.o-+OO+o&:,2wwi<,7;t%777;O =>O e55.*0*.++*0.44",
"t*0*@.7.%*o+-3-+;%.77;,%9t0**.*0%:.@%3;,t939@@t*",
"669@&s1oo.8ly1  i3===qqrh1t.:54*.s=oowi622<u<O X",
" r<;ekk==.=lh=$$i6888=ssk=.:#Oe@5yl & ia6<<wX=1X",
" q6+5+$e$%5lh=$#--$ 11= 8 &:4O>5eylO@X6<<aXa6= <",
"w1  +77o-.8yq $-99o ghqk81#.5eeekyyO,w6;;pia9wX<",
"XX2 rO+OO.5r=$+-;o+ hyyh1g *.4>kylq&&w<;36uu9XX<",
"$+7#11 5&0: $X+oo+ =qyh>4O:@0*5syy>%&X6pp6uX*2<<",
",9,%%o#7,..:&7,%%%4+o&7+,t%%@0.%54.@.&,%@&<7**,,",
"udda3=hyh14 =w6$ -$   =qri;&#8>54+:-7-,**00%;2ww",
"iuuaaf1r=$&5>  $$O88 ==wwu9:eO5OO>4sO88 6,*+1uii",
"jjjaaiX $+o- 8  O$ O+ uwuf,:>54#>g.#e 8+<;@=zduj",
"jjjj666<<O+:  =1=  $2Xfdrro.#4#5sg78g>O$+o*rzzfj",
"jjjja66<$ $o88 11= XXwuwww7&#4#8kyOqys$++-*rzzdu",
"jjjjjii +8#&O 81k 8=XiX666.:O55#>lsqqsO$5-*izddd",
"jaaaXw1$**0*:4:4e&.-+8 $23t%.*@@.e454.***@0piiji",
"%%:,..,%,7..4eO&-<-%o5#o+-o-4.@4:.:o,*@t,79%tt%%",
"$.O#5O+%OsO#Osk8 Xr-8rr== 1qh=$sk4Or$@7e>>q+o1r=",
"O*:::#4@45o:+OOO$O=2:=1 8$=rrO$>qq1r$@5se>g$&qh1",
" @@&:55@:.%%&55#+88#&7+8$$ r +$$ s=rr:#>e>ge.gyh",
">%%::58*&&...o4-Osk>>8-o+$ 1 +23322X8.5eskq5&syy",
"+%.&&#e*&:&7:+o75qyyqk>8$$= 8+39,93X70:5>gq&@#e>",
"#%::&4#0.#::#$-7#>ggqq>++8=82-;,9;6r+0&#5sko%4#5",
":.e5:4#**##4#$#-5>qqgy$@%+8+--3326wr80&4558+&54:",
"**::::&%*.&.@.*.&4#555-9**@%%.%,33:+700*.%&**.%@",
",&7:4@@.-eO$..:o.&$OO+$+7**,-2-o<p@7o&.o$88%%.4o",
"skgyl8$:+sgy845>7&rqgk>887&XX<-3-Xo w$# s=1o7O>>",
">kggk>55+58>O45s5.1qq=881+.$6<233;;X=O$O$$ -ee5$",
"Oe>s>O####+$e5#eO%>qk8$ 1+,$6$<;;,t6r= 8O+$:#+##",
"OOOOO5#Oo-#5eO#O4%1yq8-+ ;%2<2-9tt9611w 82+o.###"
};
